<?xml version="1.0" encoding="UTF-8"?>
<map version="1.0" orientation="orthogonal" renderorder="right-down" width="40" height="21" tilewidth="32" tileheight="32" backgroundcolor="#414141" nextobjectid="15">
 <properties>
  <property name="name" value="Noveria"/>
 </properties>
 <tileset firstgid="1" name="Walls" tilewidth="32" tileheight="32" tilecount="16">
  <image source="../tiles/wallTileSheet-classic.png" width="512" height="32"/>
 </tileset>
 <tileset firstgid="17" name="PowerUps" tilewidth="32" tileheight="32" tilecount="16">
  <image source="../tiles/powerUpSheet.png" width="512" height="32"/>
 </tileset>
 <tileset firstgid="33" name="Features" tilewidth="32" tileheight="32" tilecount="8">
  <image source="../tiles/featuresSheet.png" width="256" height="32"/>
 </tileset>
 <tileset firstgid="41" name="Terrain" tilewidth="32" tileheight="32" tilecount="8">
  <image source="../tiles/terrainSheet-classic.png" width="256" height="32"/>
 </tileset>
 <tileset firstgid="49" name="Overlay" tilewidth="32" tileheight="32" tilecount="16">
  <image source="../tiles/overlaySheet-classic.png" width="512" height="32"/>
 </tileset>
 <layer name="Terrain" width="40" height="21">
  <data>
   <tile gid="43"/>
   <tile gid="43"/>
   <tile gid="43"/>
   <tile gid="43"/>
   <tile gid="43"/>
   <tile gid="43"/>
   <tile gid="43"/>
   <tile gid="43"/>
   <tile gid="43"/>
   <tile gid="43"/>
   <tile gid="43"/>
   <tile gid="43"/>
   <tile gid="43"/>
   <tile gid="43"/>
   <tile gid="43"/>
   <tile gid="43"/>
   <tile gid="43"/>
   <tile gid="43"/>
   <tile gid="43"/>
   <tile gid="43"/>
   <tile gid="43"/>
   <tile gid="43"/>
   <tile gid="43"/>
   <tile gid="43"/>
   <tile gid="43"/>
   <tile gid="43"/>
   <tile gid="43"/>
   <tile gid="43"/>
   <tile gid="43"/>
   <tile gid="43"/>
   <tile gid="43"/>
   <tile gid="43"/>
   <tile gid="43"/>
   <tile gid="43"/>
   <tile gid="43"/>
   <tile gid="43"/>
   <tile gid="43"/>
   <tile gid="43"/>
   <tile gid="43"/>
   <tile gid="43"/>
   <tile gid="43"/>
   <tile gid="41"/>
   <tile gid="41"/>
   <tile gid="41"/>
   <tile gid="41"/>
   <tile gid="41"/>
   <tile gid="41"/>
   <tile gid="41"/>
   <tile gid="41"/>
   <tile gid="41"/>
   <tile gid="41"/>
   <tile gid="41"/>
   <tile gid="41"/>
   <tile gid="41"/>
   <tile gid="41"/>
   <tile gid="41"/>
   <tile gid="41"/>
   <tile gid="41"/>
   <tile gid="41"/>
   <tile gid="41"/>
   <tile gid="41"/>
   <tile gid="41"/>
   <tile gid="41"/>
   <tile gid="41"/>
   <tile gid="41"/>
   <tile gid="41"/>
   <tile gid="41"/>
   <tile gid="41"/>
   <tile gid="41"/>
   <tile gid="41"/>
   <tile gid="41"/>
   <tile gid="41"/>
   <tile gid="41"/>
   <tile gid="41"/>
   <tile gid="41"/>
   <tile gid="41"/>
   <tile gid="41"/>
   <tile gid="41"/>
   <tile gid="41"/>
   <tile gid="43"/>
   <tile gid="41"/>
   <tile gid="41"/>
   <tile gid="41"/>
   <tile gid="41"/>
   <tile gid="41"/>
   <tile gid="41"/>
   <tile gid="41"/>
   <tile gid="41"/>
   <tile gid="41"/>
   <tile gid="41"/>
   <tile gid="41"/>
   <tile gid="41"/>
   <tile gid="41"/>
   <tile gid="41"/>
   <tile gid="41"/>
   <tile gid="41"/>
   <tile gid="41"/>
   <tile gid="41"/>
   <tile gid="41"/>
   <tile gid="41"/>
   <tile gid="41"/>
   <tile gid="41"/>
   <tile gid="41"/>
   <tile gid="41"/>
   <tile gid="41"/>
   <tile gid="41"/>
   <tile gid="41"/>
   <tile gid="41"/>
   <tile gid="41"/>
   <tile gid="41"/>
   <tile gid="41"/>
   <tile gid="41"/>
   <tile gid="41"/>
   <tile gid="41"/>
   <tile gid="41"/>
   <tile gid="41"/>
   <tile gid="41"/>
   <tile gid="41"/>
   <tile gid="41"/>
   <tile gid="41"/>
   <tile gid="41"/>
   <tile gid="41"/>
   <tile gid="41"/>
   <tile gid="41"/>
   <tile gid="41"/>
   <tile gid="41"/>
   <tile gid="41"/>
   <tile gid="41"/>
   <tile gid="41"/>
   <tile gid="41"/>
   <tile gid="41"/>
   <tile gid="41"/>
   <tile gid="41"/>
   <tile gid="41"/>
   <tile gid="41"/>
   <tile gid="41"/>
   <tile gid="41"/>
   <tile gid="41"/>
   <tile gid="41"/>
   <tile gid="41"/>
   <tile gid="41"/>
   <tile gid="41"/>
   <tile gid="41"/>
   <tile gid="41"/>
   <tile gid="41"/>
   <tile gid="41"/>
   <tile gid="41"/>
   <tile gid="41"/>
   <tile gid="41"/>
   <tile gid="41"/>
   <tile gid="41"/>
   <tile gid="41"/>
   <tile gid="41"/>
   <tile gid="41"/>
   <tile gid="41"/>
   <tile gid="41"/>
   <tile gid="41"/>
   <tile gid="41"/>
   <tile gid="41"/>
   <tile gid="41"/>
   <tile gid="41"/>
   <tile gid="41"/>
   <tile gid="41"/>
   <tile gid="41"/>
   <tile gid="41"/>
   <tile gid="41"/>
   <tile gid="41"/>
   <tile gid="41"/>
   <tile gid="41"/>
   <tile gid="41"/>
   <tile gid="41"/>
   <tile gid="41"/>
   <tile gid="41"/>
   <tile gid="41"/>
   <tile gid="41"/>
   <tile gid="41"/>
   <tile gid="41"/>
   <tile gid="41"/>
   <tile gid="41"/>
   <tile gid="41"/>
   <tile gid="41"/>
   <tile gid="41"/>
   <tile gid="41"/>
   <tile gid="41"/>
   <tile gid="41"/>
   <tile gid="41"/>
   <tile gid="41"/>
   <tile gid="41"/>
   <tile gid="41"/>
   <tile gid="41"/>
   <tile gid="41"/>
   <tile gid="41"/>
   <tile gid="41"/>
   <tile gid="41"/>
   <tile gid="41"/>
   <tile gid="41"/>
   <tile gid="41"/>
   <tile gid="41"/>
   <tile gid="41"/>
   <tile gid="41"/>
   <tile gid="41"/>
   <tile gid="41"/>
   <tile gid="41"/>
   <tile gid="41"/>
   <tile gid="41"/>
   <tile gid="41"/>
   <tile gid="41"/>
   <tile gid="41"/>
   <tile gid="41"/>
   <tile gid="41"/>
   <tile gid="41"/>
   <tile gid="41"/>
   <tile gid="41"/>
   <tile gid="41"/>
   <tile gid="41"/>
   <tile gid="41"/>
   <tile gid="41"/>
   <tile gid="41"/>
   <tile gid="41"/>
   <tile gid="41"/>
   <tile gid="41"/>
   <tile gid="41"/>
   <tile gid="41"/>
   <tile gid="41"/>
   <tile gid="41"/>
   <tile gid="41"/>
   <tile gid="41"/>
   <tile gid="41"/>
   <tile gid="41"/>
   <tile gid="41"/>
   <tile gid="41"/>
   <tile gid="41"/>
   <tile gid="41"/>
   <tile gid="41"/>
   <tile gid="41"/>
   <tile gid="41"/>
   <tile gid="41"/>
   <tile gid="41"/>
   <tile gid="41"/>
   <tile gid="41"/>
   <tile gid="41"/>
   <tile gid="41"/>
   <tile gid="41"/>
   <tile gid="41"/>
   <tile gid="41"/>
   <tile gid="41"/>
   <tile gid="41"/>
   <tile gid="41"/>
   <tile gid="41"/>
   <tile gid="41"/>
   <tile gid="41"/>
   <tile gid="41"/>
   <tile gid="41"/>
   <tile gid="41"/>
   <tile gid="41"/>
   <tile gid="41"/>
   <tile gid="41"/>
   <tile gid="41"/>
   <tile gid="41"/>
   <tile gid="41"/>
   <tile gid="41"/>
   <tile gid="41"/>
   <tile gid="41"/>
   <tile gid="41"/>
   <tile gid="41"/>
   <tile gid="41"/>
   <tile gid="41"/>
   <tile gid="41"/>
   <tile gid="41"/>
   <tile gid="41"/>
   <tile gid="41"/>
   <tile gid="41"/>
   <tile gid="41"/>
   <tile gid="41"/>
   <tile gid="41"/>
   <tile gid="41"/>
   <tile gid="41"/>
   <tile gid="41"/>
   <tile gid="41"/>
   <tile gid="41"/>
   <tile gid="41"/>
   <tile gid="41"/>
   <tile gid="41"/>
   <tile gid="41"/>
   <tile gid="41"/>
   <tile gid="41"/>
   <tile gid="41"/>
   <tile gid="41"/>
   <tile gid="41"/>
   <tile gid="41"/>
   <tile gid="41"/>
   <tile gid="41"/>
   <tile gid="41"/>
   <tile gid="41"/>
   <tile gid="41"/>
   <tile gid="41"/>
   <tile gid="41"/>
   <tile gid="41"/>
   <tile gid="41"/>
   <tile gid="41"/>
   <tile gid="41"/>
   <tile gid="41"/>
   <tile gid="41"/>
   <tile gid="41"/>
   <tile gid="41"/>
   <tile gid="41"/>
   <tile gid="41"/>
   <tile gid="41"/>
   <tile gid="41"/>
   <tile gid="41"/>
   <tile gid="41"/>
   <tile gid="41"/>
   <tile gid="41"/>
   <tile gid="41"/>
   <tile gid="41"/>
   <tile gid="41"/>
   <tile gid="41"/>
   <tile gid="41"/>
   <tile gid="41"/>
   <tile gid="41"/>
   <tile gid="41"/>
   <tile gid="41"/>
   <tile gid="41"/>
   <tile gid="41"/>
   <tile gid="0"/>
   <tile gid="41"/>
   <tile gid="41"/>
   <tile gid="41"/>
   <tile gid="41"/>
   <tile gid="41"/>
   <tile gid="41"/>
   <tile gid="41"/>
   <tile gid="41"/>
   <tile gid="41"/>
   <tile gid="41"/>
   <tile gid="41"/>
   <tile gid="41"/>
   <tile gid="41"/>
   <tile gid="41"/>
   <tile gid="41"/>
   <tile gid="41"/>
   <tile gid="41"/>
   <tile gid="41"/>
   <tile gid="41"/>
   <tile gid="41"/>
   <tile gid="41"/>
   <tile gid="41"/>
   <tile gid="41"/>
   <tile gid="41"/>
   <tile gid="41"/>
   <tile gid="41"/>
   <tile gid="41"/>
   <tile gid="41"/>
   <tile gid="41"/>
   <tile gid="41"/>
   <tile gid="0"/>
   <tile gid="41"/>
   <tile gid="41"/>
   <tile gid="41"/>
   <tile gid="41"/>
   <tile gid="41"/>
   <tile gid="41"/>
   <tile gid="41"/>
   <tile gid="41"/>
   <tile gid="0"/>
   <tile gid="0"/>
   <tile gid="41"/>
   <tile gid="41"/>
   <tile gid="41"/>
   <tile gid="41"/>
   <tile gid="41"/>
   <tile gid="41"/>
   <tile gid="41"/>
   <tile gid="41"/>
   <tile gid="41"/>
   <tile gid="41"/>
   <tile gid="41"/>
   <tile gid="41"/>
   <tile gid="41"/>
   <tile gid="41"/>
   <tile gid="41"/>
   <tile gid="41"/>
   <tile gid="41"/>
   <tile gid="41"/>
   <tile gid="41"/>
   <tile gid="41"/>
   <tile gid="41"/>
   <tile gid="41"/>
   <tile gid="41"/>
   <tile gid="41"/>
   <tile gid="41"/>
   <tile gid="41"/>
   <tile gid="41"/>
   <tile gid="41"/>
   <tile gid="0"/>
   <tile gid="0"/>
   <tile gid="41"/>
   <tile gid="41"/>
   <tile gid="41"/>
   <tile gid="41"/>
   <tile gid="41"/>
   <tile gid="41"/>
   <tile gid="41"/>
   <tile gid="41"/>
   <tile gid="0"/>
   <tile gid="0"/>
   <tile gid="41"/>
   <tile gid="41"/>
   <tile gid="41"/>
   <tile gid="41"/>
   <tile gid="41"/>
   <tile gid="41"/>
   <tile gid="41"/>
   <tile gid="41"/>
   <tile gid="41"/>
   <tile gid="41"/>
   <tile gid="41"/>
   <tile gid="41"/>
   <tile gid="41"/>
   <tile gid="41"/>
   <tile gid="41"/>
   <tile gid="41"/>
   <tile gid="41"/>
   <tile gid="41"/>
   <tile gid="41"/>
   <tile gid="41"/>
   <tile gid="41"/>
   <tile gid="41"/>
   <tile gid="41"/>
   <tile gid="41"/>
   <tile gid="41"/>
   <tile gid="41"/>
   <tile gid="41"/>
   <tile gid="41"/>
   <tile gid="0"/>
   <tile gid="0"/>
   <tile gid="41"/>
   <tile gid="41"/>
   <tile gid="41"/>
   <tile gid="41"/>
   <tile gid="41"/>
   <tile gid="41"/>
   <tile gid="41"/>
   <tile gid="41"/>
   <tile gid="0"/>
   <tile gid="0"/>
   <tile gid="41"/>
   <tile gid="41"/>
   <tile gid="41"/>
   <tile gid="41"/>
   <tile gid="41"/>
   <tile gid="41"/>
   <tile gid="41"/>
   <tile gid="41"/>
   <tile gid="41"/>
   <tile gid="41"/>
   <tile gid="41"/>
   <tile gid="41"/>
   <tile gid="41"/>
   <tile gid="41"/>
   <tile gid="41"/>
   <tile gid="41"/>
   <tile gid="41"/>
   <tile gid="41"/>
   <tile gid="41"/>
   <tile gid="41"/>
   <tile gid="41"/>
   <tile gid="41"/>
   <tile gid="41"/>
   <tile gid="41"/>
   <tile gid="41"/>
   <tile gid="41"/>
   <tile gid="41"/>
   <tile gid="41"/>
   <tile gid="0"/>
   <tile gid="0"/>
   <tile gid="41"/>
   <tile gid="41"/>
   <tile gid="41"/>
   <tile gid="41"/>
   <tile gid="41"/>
   <tile gid="41"/>
   <tile gid="41"/>
   <tile gid="41"/>
   <tile gid="0"/>
   <tile gid="41"/>
   <tile gid="41"/>
   <tile gid="41"/>
   <tile gid="41"/>
   <tile gid="41"/>
   <tile gid="41"/>
   <tile gid="41"/>
   <tile gid="41"/>
   <tile gid="41"/>
   <tile gid="41"/>
   <tile gid="41"/>
   <tile gid="41"/>
   <tile gid="41"/>
   <tile gid="41"/>
   <tile gid="41"/>
   <tile gid="41"/>
   <tile gid="41"/>
   <tile gid="41"/>
   <tile gid="41"/>
   <tile gid="41"/>
   <tile gid="41"/>
   <tile gid="41"/>
   <tile gid="41"/>
   <tile gid="41"/>
   <tile gid="41"/>
   <tile gid="41"/>
   <tile gid="41"/>
   <tile gid="41"/>
   <tile gid="41"/>
   <tile gid="41"/>
   <tile gid="0"/>
   <tile gid="41"/>
   <tile gid="41"/>
   <tile gid="41"/>
   <tile gid="41"/>
   <tile gid="41"/>
   <tile gid="41"/>
   <tile gid="41"/>
   <tile gid="41"/>
   <tile gid="41"/>
   <tile gid="41"/>
   <tile gid="41"/>
   <tile gid="41"/>
   <tile gid="41"/>
   <tile gid="41"/>
   <tile gid="41"/>
   <tile gid="41"/>
   <tile gid="41"/>
   <tile gid="41"/>
   <tile gid="41"/>
   <tile gid="41"/>
   <tile gid="41"/>
   <tile gid="41"/>
   <tile gid="41"/>
   <tile gid="41"/>
   <tile gid="41"/>
   <tile gid="41"/>
   <tile gid="41"/>
   <tile gid="41"/>
   <tile gid="41"/>
   <tile gid="41"/>
   <tile gid="41"/>
   <tile gid="41"/>
   <tile gid="41"/>
   <tile gid="41"/>
   <tile gid="41"/>
   <tile gid="41"/>
   <tile gid="41"/>
   <tile gid="41"/>
   <tile gid="41"/>
   <tile gid="41"/>
   <tile gid="41"/>
   <tile gid="41"/>
   <tile gid="41"/>
   <tile gid="41"/>
   <tile gid="41"/>
   <tile gid="41"/>
   <tile gid="41"/>
   <tile gid="41"/>
   <tile gid="41"/>
   <tile gid="41"/>
   <tile gid="41"/>
   <tile gid="41"/>
   <tile gid="41"/>
   <tile gid="41"/>
   <tile gid="41"/>
   <tile gid="41"/>
   <tile gid="41"/>
   <tile gid="41"/>
   <tile gid="41"/>
   <tile gid="41"/>
   <tile gid="41"/>
   <tile gid="41"/>
   <tile gid="41"/>
   <tile gid="41"/>
   <tile gid="41"/>
   <tile gid="41"/>
   <tile gid="41"/>
   <tile gid="41"/>
   <tile gid="41"/>
   <tile gid="41"/>
   <tile gid="41"/>
   <tile gid="41"/>
   <tile gid="41"/>
   <tile gid="41"/>
   <tile gid="41"/>
   <tile gid="41"/>
   <tile gid="41"/>
   <tile gid="41"/>
   <tile gid="41"/>
   <tile gid="41"/>
   <tile gid="41"/>
   <tile gid="41"/>
   <tile gid="41"/>
   <tile gid="41"/>
   <tile gid="41"/>
   <tile gid="41"/>
   <tile gid="41"/>
   <tile gid="41"/>
   <tile gid="41"/>
   <tile gid="41"/>
   <tile gid="41"/>
   <tile gid="41"/>
   <tile gid="41"/>
   <tile gid="41"/>
   <tile gid="41"/>
   <tile gid="41"/>
   <tile gid="41"/>
   <tile gid="41"/>
   <tile gid="41"/>
   <tile gid="41"/>
   <tile gid="41"/>
   <tile gid="41"/>
   <tile gid="41"/>
   <tile gid="41"/>
   <tile gid="41"/>
   <tile gid="41"/>
   <tile gid="41"/>
   <tile gid="41"/>
   <tile gid="41"/>
   <tile gid="41"/>
   <tile gid="41"/>
   <tile gid="41"/>
   <tile gid="41"/>
   <tile gid="41"/>
   <tile gid="41"/>
   <tile gid="41"/>
   <tile gid="41"/>
   <tile gid="41"/>
   <tile gid="41"/>
   <tile gid="41"/>
   <tile gid="41"/>
   <tile gid="41"/>
   <tile gid="41"/>
   <tile gid="41"/>
   <tile gid="41"/>
   <tile gid="41"/>
   <tile gid="41"/>
   <tile gid="41"/>
   <tile gid="41"/>
   <tile gid="41"/>
   <tile gid="41"/>
   <tile gid="41"/>
   <tile gid="41"/>
   <tile gid="41"/>
   <tile gid="41"/>
   <tile gid="41"/>
   <tile gid="41"/>
   <tile gid="41"/>
   <tile gid="41"/>
   <tile gid="41"/>
   <tile gid="41"/>
   <tile gid="41"/>
   <tile gid="41"/>
   <tile gid="41"/>
   <tile gid="41"/>
   <tile gid="41"/>
   <tile gid="41"/>
   <tile gid="41"/>
   <tile gid="41"/>
   <tile gid="41"/>
   <tile gid="41"/>
   <tile gid="41"/>
   <tile gid="41"/>
   <tile gid="41"/>
   <tile gid="41"/>
   <tile gid="41"/>
   <tile gid="41"/>
   <tile gid="41"/>
   <tile gid="41"/>
   <tile gid="41"/>
   <tile gid="41"/>
   <tile gid="41"/>
   <tile gid="41"/>
   <tile gid="41"/>
   <tile gid="41"/>
   <tile gid="41"/>
   <tile gid="41"/>
   <tile gid="41"/>
   <tile gid="41"/>
   <tile gid="41"/>
   <tile gid="41"/>
   <tile gid="41"/>
   <tile gid="41"/>
   <tile gid="41"/>
   <tile gid="41"/>
   <tile gid="41"/>
   <tile gid="41"/>
   <tile gid="41"/>
   <tile gid="41"/>
   <tile gid="41"/>
   <tile gid="41"/>
   <tile gid="41"/>
   <tile gid="41"/>
   <tile gid="41"/>
   <tile gid="41"/>
   <tile gid="41"/>
   <tile gid="41"/>
   <tile gid="41"/>
   <tile gid="41"/>
   <tile gid="41"/>
   <tile gid="41"/>
   <tile gid="41"/>
   <tile gid="41"/>
   <tile gid="41"/>
   <tile gid="41"/>
   <tile gid="41"/>
   <tile gid="41"/>
   <tile gid="41"/>
   <tile gid="41"/>
   <tile gid="41"/>
   <tile gid="41"/>
   <tile gid="41"/>
   <tile gid="41"/>
   <tile gid="41"/>
   <tile gid="41"/>
   <tile gid="41"/>
   <tile gid="41"/>
   <tile gid="41"/>
   <tile gid="41"/>
   <tile gid="41"/>
   <tile gid="41"/>
   <tile gid="41"/>
   <tile gid="41"/>
   <tile gid="41"/>
   <tile gid="41"/>
   <tile gid="41"/>
   <tile gid="41"/>
   <tile gid="41"/>
   <tile gid="41"/>
   <tile gid="41"/>
   <tile gid="41"/>
   <tile gid="41"/>
   <tile gid="41"/>
   <tile gid="41"/>
   <tile gid="41"/>
   <tile gid="41"/>
   <tile gid="41"/>
   <tile gid="41"/>
   <tile gid="41"/>
   <tile gid="41"/>
   <tile gid="41"/>
   <tile gid="41"/>
   <tile gid="41"/>
   <tile gid="41"/>
   <tile gid="41"/>
   <tile gid="41"/>
   <tile gid="41"/>
   <tile gid="41"/>
   <tile gid="41"/>
   <tile gid="41"/>
   <tile gid="41"/>
   <tile gid="41"/>
   <tile gid="41"/>
   <tile gid="41"/>
   <tile gid="43"/>
   <tile gid="41"/>
   <tile gid="41"/>
   <tile gid="41"/>
   <tile gid="41"/>
   <tile gid="41"/>
   <tile gid="41"/>
   <tile gid="41"/>
   <tile gid="41"/>
   <tile gid="41"/>
   <tile gid="41"/>
   <tile gid="41"/>
   <tile gid="41"/>
   <tile gid="41"/>
   <tile gid="41"/>
   <tile gid="41"/>
   <tile gid="41"/>
   <tile gid="41"/>
   <tile gid="41"/>
   <tile gid="41"/>
   <tile gid="41"/>
   <tile gid="41"/>
   <tile gid="41"/>
   <tile gid="41"/>
   <tile gid="41"/>
   <tile gid="41"/>
   <tile gid="41"/>
   <tile gid="41"/>
   <tile gid="41"/>
   <tile gid="41"/>
   <tile gid="41"/>
   <tile gid="41"/>
   <tile gid="41"/>
   <tile gid="41"/>
   <tile gid="41"/>
   <tile gid="41"/>
   <tile gid="41"/>
   <tile gid="41"/>
   <tile gid="41"/>
   <tile gid="43"/>
   <tile gid="43"/>
   <tile gid="43"/>
   <tile gid="43"/>
   <tile gid="43"/>
   <tile gid="43"/>
   <tile gid="43"/>
   <tile gid="43"/>
   <tile gid="43"/>
   <tile gid="43"/>
   <tile gid="43"/>
   <tile gid="43"/>
   <tile gid="43"/>
   <tile gid="43"/>
   <tile gid="43"/>
   <tile gid="43"/>
   <tile gid="43"/>
   <tile gid="43"/>
   <tile gid="43"/>
   <tile gid="43"/>
   <tile gid="43"/>
   <tile gid="43"/>
   <tile gid="43"/>
   <tile gid="43"/>
   <tile gid="43"/>
   <tile gid="43"/>
   <tile gid="43"/>
   <tile gid="43"/>
   <tile gid="43"/>
   <tile gid="43"/>
   <tile gid="43"/>
   <tile gid="43"/>
   <tile gid="43"/>
   <tile gid="43"/>
   <tile gid="43"/>
   <tile gid="43"/>
   <tile gid="43"/>
   <tile gid="43"/>
   <tile gid="43"/>
   <tile gid="43"/>
   <tile gid="43"/>
  </data>
 </layer>
 <layer name="Walls" width="40" height="21" visible="0">
  <data>
   <tile gid="0"/>
   <tile gid="0"/>
   <tile gid="0"/>
   <tile gid="0"/>
   <tile gid="0"/>
   <tile gid="0"/>
   <tile gid="0"/>
   <tile gid="0"/>
   <tile gid="0"/>
   <tile gid="0"/>
   <tile gid="0"/>
   <tile gid="0"/>
   <tile gid="0"/>
   <tile gid="0"/>
   <tile gid="0"/>
   <tile gid="0"/>
   <tile gid="0"/>
   <tile gid="0"/>
   <tile gid="0"/>
   <tile gid="0"/>
   <tile gid="0"/>
   <tile gid="0"/>
   <tile gid="0"/>
   <tile gid="0"/>
   <tile gid="0"/>
   <tile gid="0"/>
   <tile gid="0"/>
   <tile gid="0"/>
   <tile gid="0"/>
   <tile gid="0"/>
   <tile gid="0"/>
   <tile gid="0"/>
   <tile gid="0"/>
   <tile gid="0"/>
   <tile gid="0"/>
   <tile gid="0"/>
   <tile gid="0"/>
   <tile gid="0"/>
   <tile gid="0"/>
   <tile gid="0"/>
   <tile gid="0"/>
   <tile gid="0"/>
   <tile gid="0"/>
   <tile gid="0"/>
   <tile gid="0"/>
   <tile gid="0"/>
   <tile gid="0"/>
   <tile gid="0"/>
   <tile gid="0"/>
   <tile gid="0"/>
   <tile gid="0"/>
   <tile gid="0"/>
   <tile gid="0"/>
   <tile gid="0"/>
   <tile gid="0"/>
   <tile gid="0"/>
   <tile gid="0"/>
   <tile gid="0"/>
   <tile gid="0"/>
   <tile gid="0"/>
   <tile gid="0"/>
   <tile gid="0"/>
   <tile gid="0"/>
   <tile gid="0"/>
   <tile gid="0"/>
   <tile gid="0"/>
   <tile gid="0"/>
   <tile gid="0"/>
   <tile gid="0"/>
   <tile gid="0"/>
   <tile gid="0"/>
   <tile gid="0"/>
   <tile gid="0"/>
   <tile gid="0"/>
   <tile gid="0"/>
   <tile gid="0"/>
   <tile gid="0"/>
   <tile gid="0"/>
   <tile gid="0"/>
   <tile gid="0"/>
   <tile gid="0"/>
   <tile gid="0"/>
   <tile gid="0"/>
   <tile gid="0"/>
   <tile gid="0"/>
   <tile gid="0"/>
   <tile gid="0"/>
   <tile gid="0"/>
   <tile gid="0"/>
   <tile gid="0"/>
   <tile gid="0"/>
   <tile gid="0"/>
   <tile gid="0"/>
   <tile gid="0"/>
   <tile gid="0"/>
   <tile gid="0"/>
   <tile gid="0"/>
   <tile gid="0"/>
   <tile gid="0"/>
   <tile gid="0"/>
   <tile gid="0"/>
   <tile gid="0"/>
   <tile gid="0"/>
   <tile gid="0"/>
   <tile gid="0"/>
   <tile gid="0"/>
   <tile gid="0"/>
   <tile gid="0"/>
   <tile gid="0"/>
   <tile gid="0"/>
   <tile gid="0"/>
   <tile gid="0"/>
   <tile gid="0"/>
   <tile gid="0"/>
   <tile gid="0"/>
   <tile gid="0"/>
   <tile gid="0"/>
   <tile gid="0"/>
   <tile gid="0"/>
   <tile gid="0"/>
   <tile gid="0"/>
   <tile gid="0"/>
   <tile gid="0"/>
   <tile gid="0"/>
   <tile gid="0"/>
   <tile gid="0"/>
   <tile gid="0"/>
   <tile gid="0"/>
   <tile gid="0"/>
   <tile gid="0"/>
   <tile gid="0"/>
   <tile gid="0"/>
   <tile gid="0"/>
   <tile gid="0"/>
   <tile gid="0"/>
   <tile gid="0"/>
   <tile gid="0"/>
   <tile gid="0"/>
   <tile gid="0"/>
   <tile gid="0"/>
   <tile gid="0"/>
   <tile gid="0"/>
   <tile gid="0"/>
   <tile gid="0"/>
   <tile gid="0"/>
   <tile gid="0"/>
   <tile gid="0"/>
   <tile gid="0"/>
   <tile gid="0"/>
   <tile gid="0"/>
   <tile gid="0"/>
   <tile gid="0"/>
   <tile gid="0"/>
   <tile gid="0"/>
   <tile gid="0"/>
   <tile gid="0"/>
   <tile gid="0"/>
   <tile gid="0"/>
   <tile gid="0"/>
   <tile gid="0"/>
   <tile gid="0"/>
   <tile gid="0"/>
   <tile gid="0"/>
   <tile gid="0"/>
   <tile gid="0"/>
   <tile gid="0"/>
   <tile gid="0"/>
   <tile gid="0"/>
   <tile gid="0"/>
   <tile gid="0"/>
   <tile gid="0"/>
   <tile gid="0"/>
   <tile gid="0"/>
   <tile gid="0"/>
   <tile gid="0"/>
   <tile gid="0"/>
   <tile gid="0"/>
   <tile gid="0"/>
   <tile gid="0"/>
   <tile gid="0"/>
   <tile gid="0"/>
   <tile gid="0"/>
   <tile gid="0"/>
   <tile gid="0"/>
   <tile gid="0"/>
   <tile gid="0"/>
   <tile gid="0"/>
   <tile gid="0"/>
   <tile gid="0"/>
   <tile gid="0"/>
   <tile gid="0"/>
   <tile gid="0"/>
   <tile gid="0"/>
   <tile gid="0"/>
   <tile gid="0"/>
   <tile gid="0"/>
   <tile gid="0"/>
   <tile gid="0"/>
   <tile gid="0"/>
   <tile gid="0"/>
   <tile gid="0"/>
   <tile gid="0"/>
   <tile gid="0"/>
   <tile gid="0"/>
   <tile gid="0"/>
   <tile gid="0"/>
   <tile gid="0"/>
   <tile gid="0"/>
   <tile gid="0"/>
   <tile gid="0"/>
   <tile gid="0"/>
   <tile gid="0"/>
   <tile gid="0"/>
   <tile gid="0"/>
   <tile gid="0"/>
   <tile gid="0"/>
   <tile gid="0"/>
   <tile gid="0"/>
   <tile gid="0"/>
   <tile gid="0"/>
   <tile gid="0"/>
   <tile gid="0"/>
   <tile gid="0"/>
   <tile gid="0"/>
   <tile gid="0"/>
   <tile gid="0"/>
   <tile gid="0"/>
   <tile gid="0"/>
   <tile gid="0"/>
   <tile gid="0"/>
   <tile gid="0"/>
   <tile gid="0"/>
   <tile gid="0"/>
   <tile gid="0"/>
   <tile gid="0"/>
   <tile gid="0"/>
   <tile gid="0"/>
   <tile gid="0"/>
   <tile gid="0"/>
   <tile gid="0"/>
   <tile gid="0"/>
   <tile gid="0"/>
   <tile gid="0"/>
   <tile gid="0"/>
   <tile gid="0"/>
   <tile gid="0"/>
   <tile gid="0"/>
   <tile gid="0"/>
   <tile gid="0"/>
   <tile gid="0"/>
   <tile gid="0"/>
   <tile gid="0"/>
   <tile gid="0"/>
   <tile gid="0"/>
   <tile gid="0"/>
   <tile gid="0"/>
   <tile gid="0"/>
   <tile gid="0"/>
   <tile gid="0"/>
   <tile gid="0"/>
   <tile gid="0"/>
   <tile gid="0"/>
   <tile gid="0"/>
   <tile gid="0"/>
   <tile gid="0"/>
   <tile gid="0"/>
   <tile gid="0"/>
   <tile gid="0"/>
   <tile gid="0"/>
   <tile gid="0"/>
   <tile gid="0"/>
   <tile gid="0"/>
   <tile gid="0"/>
   <tile gid="0"/>
   <tile gid="0"/>
   <tile gid="0"/>
   <tile gid="0"/>
   <tile gid="0"/>
   <tile gid="0"/>
   <tile gid="0"/>
   <tile gid="0"/>
   <tile gid="0"/>
   <tile gid="0"/>
   <tile gid="0"/>
   <tile gid="0"/>
   <tile gid="0"/>
   <tile gid="0"/>
   <tile gid="0"/>
   <tile gid="0"/>
   <tile gid="0"/>
   <tile gid="0"/>
   <tile gid="0"/>
   <tile gid="0"/>
   <tile gid="0"/>
   <tile gid="0"/>
   <tile gid="0"/>
   <tile gid="0"/>
   <tile gid="0"/>
   <tile gid="0"/>
   <tile gid="0"/>
   <tile gid="0"/>
   <tile gid="0"/>
   <tile gid="0"/>
   <tile gid="0"/>
   <tile gid="0"/>
   <tile gid="0"/>
   <tile gid="0"/>
   <tile gid="0"/>
   <tile gid="0"/>
   <tile gid="0"/>
   <tile gid="0"/>
   <tile gid="0"/>
   <tile gid="0"/>
   <tile gid="0"/>
   <tile gid="0"/>
   <tile gid="0"/>
   <tile gid="0"/>
   <tile gid="0"/>
   <tile gid="0"/>
   <tile gid="0"/>
   <tile gid="0"/>
   <tile gid="0"/>
   <tile gid="0"/>
   <tile gid="7"/>
   <tile gid="0"/>
   <tile gid="0"/>
   <tile gid="0"/>
   <tile gid="0"/>
   <tile gid="0"/>
   <tile gid="0"/>
   <tile gid="0"/>
   <tile gid="0"/>
   <tile gid="0"/>
   <tile gid="0"/>
   <tile gid="0"/>
   <tile gid="0"/>
   <tile gid="0"/>
   <tile gid="0"/>
   <tile gid="0"/>
   <tile gid="0"/>
   <tile gid="0"/>
   <tile gid="0"/>
   <tile gid="0"/>
   <tile gid="0"/>
   <tile gid="0"/>
   <tile gid="0"/>
   <tile gid="0"/>
   <tile gid="0"/>
   <tile gid="0"/>
   <tile gid="0"/>
   <tile gid="0"/>
   <tile gid="0"/>
   <tile gid="0"/>
   <tile gid="0"/>
   <tile gid="0"/>
   <tile gid="0"/>
   <tile gid="7"/>
   <tile gid="0"/>
   <tile gid="0"/>
   <tile gid="0"/>
   <tile gid="0"/>
   <tile gid="0"/>
   <tile gid="0"/>
   <tile gid="7"/>
   <tile gid="0"/>
   <tile gid="0"/>
   <tile gid="0"/>
   <tile gid="0"/>
   <tile gid="0"/>
   <tile gid="0"/>
   <tile gid="0"/>
   <tile gid="0"/>
   <tile gid="0"/>
   <tile gid="0"/>
   <tile gid="0"/>
   <tile gid="0"/>
   <tile gid="0"/>
   <tile gid="0"/>
   <tile gid="0"/>
   <tile gid="0"/>
   <tile gid="0"/>
   <tile gid="0"/>
   <tile gid="0"/>
   <tile gid="0"/>
   <tile gid="0"/>
   <tile gid="0"/>
   <tile gid="0"/>
   <tile gid="0"/>
   <tile gid="0"/>
   <tile gid="0"/>
   <tile gid="0"/>
   <tile gid="0"/>
   <tile gid="0"/>
   <tile gid="0"/>
   <tile gid="0"/>
   <tile gid="0"/>
   <tile gid="7"/>
   <tile gid="0"/>
   <tile gid="0"/>
   <tile gid="0"/>
   <tile gid="0"/>
   <tile gid="0"/>
   <tile gid="0"/>
   <tile gid="7"/>
   <tile gid="0"/>
   <tile gid="0"/>
   <tile gid="0"/>
   <tile gid="0"/>
   <tile gid="0"/>
   <tile gid="0"/>
   <tile gid="0"/>
   <tile gid="0"/>
   <tile gid="0"/>
   <tile gid="0"/>
   <tile gid="0"/>
   <tile gid="0"/>
   <tile gid="0"/>
   <tile gid="0"/>
   <tile gid="0"/>
   <tile gid="0"/>
   <tile gid="0"/>
   <tile gid="0"/>
   <tile gid="0"/>
   <tile gid="0"/>
   <tile gid="0"/>
   <tile gid="0"/>
   <tile gid="0"/>
   <tile gid="0"/>
   <tile gid="0"/>
   <tile gid="0"/>
   <tile gid="0"/>
   <tile gid="0"/>
   <tile gid="0"/>
   <tile gid="0"/>
   <tile gid="0"/>
   <tile gid="0"/>
   <tile gid="7"/>
   <tile gid="0"/>
   <tile gid="0"/>
   <tile gid="0"/>
   <tile gid="0"/>
   <tile gid="0"/>
   <tile gid="0"/>
   <tile gid="7"/>
   <tile gid="0"/>
   <tile gid="0"/>
   <tile gid="0"/>
   <tile gid="0"/>
   <tile gid="0"/>
   <tile gid="0"/>
   <tile gid="0"/>
   <tile gid="0"/>
   <tile gid="0"/>
   <tile gid="0"/>
   <tile gid="0"/>
   <tile gid="0"/>
   <tile gid="0"/>
   <tile gid="0"/>
   <tile gid="0"/>
   <tile gid="0"/>
   <tile gid="0"/>
   <tile gid="0"/>
   <tile gid="0"/>
   <tile gid="0"/>
   <tile gid="0"/>
   <tile gid="0"/>
   <tile gid="0"/>
   <tile gid="0"/>
   <tile gid="0"/>
   <tile gid="0"/>
   <tile gid="0"/>
   <tile gid="0"/>
   <tile gid="0"/>
   <tile gid="0"/>
   <tile gid="0"/>
   <tile gid="0"/>
   <tile gid="7"/>
   <tile gid="0"/>
   <tile gid="0"/>
   <tile gid="0"/>
   <tile gid="0"/>
   <tile gid="0"/>
   <tile gid="0"/>
   <tile gid="7"/>
   <tile gid="0"/>
   <tile gid="0"/>
   <tile gid="0"/>
   <tile gid="0"/>
   <tile gid="0"/>
   <tile gid="0"/>
   <tile gid="0"/>
   <tile gid="0"/>
   <tile gid="0"/>
   <tile gid="0"/>
   <tile gid="0"/>
   <tile gid="0"/>
   <tile gid="0"/>
   <tile gid="0"/>
   <tile gid="0"/>
   <tile gid="0"/>
   <tile gid="0"/>
   <tile gid="0"/>
   <tile gid="0"/>
   <tile gid="0"/>
   <tile gid="0"/>
   <tile gid="0"/>
   <tile gid="0"/>
   <tile gid="0"/>
   <tile gid="0"/>
   <tile gid="0"/>
   <tile gid="0"/>
   <tile gid="0"/>
   <tile gid="0"/>
   <tile gid="0"/>
   <tile gid="0"/>
   <tile gid="0"/>
   <tile gid="7"/>
   <tile gid="0"/>
   <tile gid="0"/>
   <tile gid="0"/>
   <tile gid="0"/>
   <tile gid="0"/>
   <tile gid="0"/>
   <tile gid="0"/>
   <tile gid="0"/>
   <tile gid="0"/>
   <tile gid="0"/>
   <tile gid="0"/>
   <tile gid="0"/>
   <tile gid="0"/>
   <tile gid="0"/>
   <tile gid="0"/>
   <tile gid="0"/>
   <tile gid="0"/>
   <tile gid="0"/>
   <tile gid="0"/>
   <tile gid="0"/>
   <tile gid="0"/>
   <tile gid="0"/>
   <tile gid="0"/>
   <tile gid="0"/>
   <tile gid="0"/>
   <tile gid="0"/>
   <tile gid="0"/>
   <tile gid="0"/>
   <tile gid="0"/>
   <tile gid="0"/>
   <tile gid="0"/>
   <tile gid="0"/>
   <tile gid="0"/>
   <tile gid="0"/>
   <tile gid="0"/>
   <tile gid="0"/>
   <tile gid="0"/>
   <tile gid="0"/>
   <tile gid="0"/>
   <tile gid="0"/>
   <tile gid="0"/>
   <tile gid="0"/>
   <tile gid="0"/>
   <tile gid="0"/>
   <tile gid="0"/>
   <tile gid="0"/>
   <tile gid="0"/>
   <tile gid="0"/>
   <tile gid="0"/>
   <tile gid="0"/>
   <tile gid="0"/>
   <tile gid="0"/>
   <tile gid="0"/>
   <tile gid="0"/>
   <tile gid="0"/>
   <tile gid="0"/>
   <tile gid="0"/>
   <tile gid="0"/>
   <tile gid="0"/>
   <tile gid="0"/>
   <tile gid="0"/>
   <tile gid="0"/>
   <tile gid="0"/>
   <tile gid="0"/>
   <tile gid="0"/>
   <tile gid="0"/>
   <tile gid="0"/>
   <tile gid="0"/>
   <tile gid="0"/>
   <tile gid="0"/>
   <tile gid="0"/>
   <tile gid="0"/>
   <tile gid="0"/>
   <tile gid="0"/>
   <tile gid="0"/>
   <tile gid="0"/>
   <tile gid="0"/>
   <tile gid="0"/>
   <tile gid="0"/>
   <tile gid="0"/>
   <tile gid="0"/>
   <tile gid="0"/>
   <tile gid="0"/>
   <tile gid="0"/>
   <tile gid="0"/>
   <tile gid="0"/>
   <tile gid="0"/>
   <tile gid="0"/>
   <tile gid="0"/>
   <tile gid="0"/>
   <tile gid="0"/>
   <tile gid="0"/>
   <tile gid="0"/>
   <tile gid="0"/>
   <tile gid="0"/>
   <tile gid="0"/>
   <tile gid="0"/>
   <tile gid="0"/>
   <tile gid="0"/>
   <tile gid="0"/>
   <tile gid="0"/>
   <tile gid="0"/>
   <tile gid="0"/>
   <tile gid="0"/>
   <tile gid="0"/>
   <tile gid="0"/>
   <tile gid="0"/>
   <tile gid="0"/>
   <tile gid="0"/>
   <tile gid="0"/>
   <tile gid="0"/>
   <tile gid="0"/>
   <tile gid="0"/>
   <tile gid="0"/>
   <tile gid="0"/>
   <tile gid="0"/>
   <tile gid="0"/>
   <tile gid="0"/>
   <tile gid="0"/>
   <tile gid="0"/>
   <tile gid="0"/>
   <tile gid="0"/>
   <tile gid="0"/>
   <tile gid="0"/>
   <tile gid="0"/>
   <tile gid="0"/>
   <tile gid="0"/>
   <tile gid="0"/>
   <tile gid="0"/>
   <tile gid="0"/>
   <tile gid="0"/>
   <tile gid="0"/>
   <tile gid="0"/>
   <tile gid="0"/>
   <tile gid="0"/>
   <tile gid="0"/>
   <tile gid="0"/>
   <tile gid="0"/>
   <tile gid="0"/>
   <tile gid="0"/>
   <tile gid="0"/>
   <tile gid="0"/>
   <tile gid="0"/>
   <tile gid="0"/>
   <tile gid="0"/>
   <tile gid="0"/>
   <tile gid="0"/>
   <tile gid="0"/>
   <tile gid="0"/>
   <tile gid="0"/>
   <tile gid="0"/>
   <tile gid="0"/>
   <tile gid="0"/>
   <tile gid="0"/>
   <tile gid="0"/>
   <tile gid="0"/>
   <tile gid="0"/>
   <tile gid="0"/>
   <tile gid="0"/>
   <tile gid="0"/>
   <tile gid="0"/>
   <tile gid="0"/>
   <tile gid="0"/>
   <tile gid="0"/>
   <tile gid="0"/>
   <tile gid="0"/>
   <tile gid="0"/>
   <tile gid="0"/>
   <tile gid="0"/>
   <tile gid="0"/>
   <tile gid="0"/>
   <tile gid="0"/>
   <tile gid="0"/>
   <tile gid="0"/>
   <tile gid="0"/>
   <tile gid="0"/>
   <tile gid="0"/>
   <tile gid="0"/>
   <tile gid="0"/>
   <tile gid="0"/>
   <tile gid="0"/>
   <tile gid="0"/>
   <tile gid="0"/>
   <tile gid="0"/>
   <tile gid="0"/>
   <tile gid="0"/>
   <tile gid="0"/>
   <tile gid="0"/>
   <tile gid="0"/>
   <tile gid="0"/>
   <tile gid="0"/>
   <tile gid="0"/>
   <tile gid="0"/>
   <tile gid="0"/>
   <tile gid="0"/>
   <tile gid="0"/>
   <tile gid="0"/>
   <tile gid="0"/>
   <tile gid="0"/>
   <tile gid="0"/>
   <tile gid="0"/>
   <tile gid="0"/>
   <tile gid="0"/>
   <tile gid="0"/>
   <tile gid="0"/>
   <tile gid="0"/>
   <tile gid="0"/>
   <tile gid="0"/>
   <tile gid="0"/>
   <tile gid="0"/>
   <tile gid="0"/>
   <tile gid="0"/>
   <tile gid="0"/>
   <tile gid="0"/>
   <tile gid="0"/>
   <tile gid="0"/>
   <tile gid="0"/>
   <tile gid="0"/>
   <tile gid="0"/>
   <tile gid="0"/>
   <tile gid="0"/>
   <tile gid="0"/>
   <tile gid="0"/>
   <tile gid="0"/>
   <tile gid="0"/>
   <tile gid="0"/>
   <tile gid="0"/>
   <tile gid="0"/>
   <tile gid="0"/>
   <tile gid="0"/>
   <tile gid="0"/>
   <tile gid="0"/>
   <tile gid="0"/>
   <tile gid="0"/>
   <tile gid="0"/>
   <tile gid="0"/>
   <tile gid="0"/>
   <tile gid="0"/>
   <tile gid="0"/>
   <tile gid="0"/>
   <tile gid="0"/>
   <tile gid="0"/>
   <tile gid="0"/>
   <tile gid="0"/>
   <tile gid="0"/>
   <tile gid="0"/>
   <tile gid="0"/>
   <tile gid="0"/>
   <tile gid="0"/>
   <tile gid="0"/>
   <tile gid="0"/>
   <tile gid="0"/>
   <tile gid="0"/>
   <tile gid="0"/>
   <tile gid="0"/>
   <tile gid="0"/>
   <tile gid="0"/>
   <tile gid="0"/>
   <tile gid="0"/>
   <tile gid="0"/>
   <tile gid="0"/>
   <tile gid="0"/>
   <tile gid="0"/>
   <tile gid="0"/>
   <tile gid="0"/>
   <tile gid="0"/>
   <tile gid="0"/>
   <tile gid="0"/>
   <tile gid="0"/>
   <tile gid="0"/>
   <tile gid="0"/>
   <tile gid="0"/>
   <tile gid="0"/>
   <tile gid="0"/>
   <tile gid="0"/>
   <tile gid="0"/>
   <tile gid="0"/>
   <tile gid="0"/>
   <tile gid="0"/>
   <tile gid="0"/>
   <tile gid="0"/>
   <tile gid="0"/>
   <tile gid="0"/>
   <tile gid="0"/>
   <tile gid="0"/>
   <tile gid="0"/>
   <tile gid="0"/>
   <tile gid="0"/>
   <tile gid="0"/>
   <tile gid="0"/>
   <tile gid="0"/>
   <tile gid="0"/>
   <tile gid="0"/>
   <tile gid="0"/>
   <tile gid="0"/>
   <tile gid="0"/>
   <tile gid="0"/>
   <tile gid="0"/>
   <tile gid="0"/>
   <tile gid="0"/>
   <tile gid="0"/>
   <tile gid="0"/>
   <tile gid="0"/>
   <tile gid="0"/>
   <tile gid="0"/>
   <tile gid="0"/>
   <tile gid="0"/>
   <tile gid="0"/>
   <tile gid="0"/>
   <tile gid="0"/>
   <tile gid="0"/>
   <tile gid="0"/>
   <tile gid="0"/>
   <tile gid="0"/>
   <tile gid="0"/>
   <tile gid="0"/>
   <tile gid="0"/>
   <tile gid="0"/>
   <tile gid="0"/>
   <tile gid="0"/>
   <tile gid="0"/>
   <tile gid="0"/>
   <tile gid="0"/>
  </data>
 </layer>
 <layer name="Overlay" width="40" height="21">
  <data>
   <tile gid="0"/>
   <tile gid="0"/>
   <tile gid="0"/>
   <tile gid="0"/>
   <tile gid="0"/>
   <tile gid="0"/>
   <tile gid="0"/>
   <tile gid="0"/>
   <tile gid="0"/>
   <tile gid="0"/>
   <tile gid="0"/>
   <tile gid="0"/>
   <tile gid="0"/>
   <tile gid="0"/>
   <tile gid="0"/>
   <tile gid="0"/>
   <tile gid="0"/>
   <tile gid="0"/>
   <tile gid="0"/>
   <tile gid="0"/>
   <tile gid="0"/>
   <tile gid="0"/>
   <tile gid="0"/>
   <tile gid="0"/>
   <tile gid="0"/>
   <tile gid="0"/>
   <tile gid="0"/>
   <tile gid="0"/>
   <tile gid="0"/>
   <tile gid="0"/>
   <tile gid="0"/>
   <tile gid="0"/>
   <tile gid="0"/>
   <tile gid="0"/>
   <tile gid="0"/>
   <tile gid="0"/>
   <tile gid="0"/>
   <tile gid="0"/>
   <tile gid="0"/>
   <tile gid="0"/>
   <tile gid="0"/>
   <tile gid="0"/>
   <tile gid="0"/>
   <tile gid="0"/>
   <tile gid="0"/>
   <tile gid="0"/>
   <tile gid="0"/>
   <tile gid="0"/>
   <tile gid="0"/>
   <tile gid="0"/>
   <tile gid="0"/>
   <tile gid="0"/>
   <tile gid="0"/>
   <tile gid="0"/>
   <tile gid="0"/>
   <tile gid="0"/>
   <tile gid="0"/>
   <tile gid="0"/>
   <tile gid="0"/>
   <tile gid="0"/>
   <tile gid="0"/>
   <tile gid="0"/>
   <tile gid="0"/>
   <tile gid="0"/>
   <tile gid="0"/>
   <tile gid="0"/>
   <tile gid="0"/>
   <tile gid="0"/>
   <tile gid="0"/>
   <tile gid="0"/>
   <tile gid="0"/>
   <tile gid="0"/>
   <tile gid="0"/>
   <tile gid="0"/>
   <tile gid="0"/>
   <tile gid="0"/>
   <tile gid="0"/>
   <tile gid="0"/>
   <tile gid="0"/>
   <tile gid="0"/>
   <tile gid="0"/>
   <tile gid="0"/>
   <tile gid="0"/>
   <tile gid="0"/>
   <tile gid="0"/>
   <tile gid="0"/>
   <tile gid="0"/>
   <tile gid="0"/>
   <tile gid="0"/>
   <tile gid="0"/>
   <tile gid="0"/>
   <tile gid="0"/>
   <tile gid="0"/>
   <tile gid="0"/>
   <tile gid="0"/>
   <tile gid="0"/>
   <tile gid="0"/>
   <tile gid="0"/>
   <tile gid="0"/>
   <tile gid="0"/>
   <tile gid="0"/>
   <tile gid="0"/>
   <tile gid="0"/>
   <tile gid="0"/>
   <tile gid="0"/>
   <tile gid="0"/>
   <tile gid="0"/>
   <tile gid="0"/>
   <tile gid="0"/>
   <tile gid="0"/>
   <tile gid="0"/>
   <tile gid="0"/>
   <tile gid="0"/>
   <tile gid="0"/>
   <tile gid="0"/>
   <tile gid="0"/>
   <tile gid="0"/>
   <tile gid="0"/>
   <tile gid="0"/>
   <tile gid="0"/>
   <tile gid="0"/>
   <tile gid="0"/>
   <tile gid="0"/>
   <tile gid="0"/>
   <tile gid="0"/>
   <tile gid="0"/>
   <tile gid="0"/>
   <tile gid="0"/>
   <tile gid="0"/>
   <tile gid="0"/>
   <tile gid="0"/>
   <tile gid="0"/>
   <tile gid="0"/>
   <tile gid="0"/>
   <tile gid="0"/>
   <tile gid="0"/>
   <tile gid="0"/>
   <tile gid="0"/>
   <tile gid="0"/>
   <tile gid="0"/>
   <tile gid="0"/>
   <tile gid="0"/>
   <tile gid="0"/>
   <tile gid="0"/>
   <tile gid="0"/>
   <tile gid="0"/>
   <tile gid="0"/>
   <tile gid="0"/>
   <tile gid="0"/>
   <tile gid="0"/>
   <tile gid="0"/>
   <tile gid="0"/>
   <tile gid="0"/>
   <tile gid="0"/>
   <tile gid="0"/>
   <tile gid="0"/>
   <tile gid="0"/>
   <tile gid="0"/>
   <tile gid="0"/>
   <tile gid="0"/>
   <tile gid="0"/>
   <tile gid="0"/>
   <tile gid="0"/>
   <tile gid="0"/>
   <tile gid="0"/>
   <tile gid="0"/>
   <tile gid="0"/>
   <tile gid="0"/>
   <tile gid="0"/>
   <tile gid="0"/>
   <tile gid="0"/>
   <tile gid="0"/>
   <tile gid="0"/>
   <tile gid="0"/>
   <tile gid="0"/>
   <tile gid="0"/>
   <tile gid="0"/>
   <tile gid="0"/>
   <tile gid="0"/>
   <tile gid="0"/>
   <tile gid="0"/>
   <tile gid="0"/>
   <tile gid="0"/>
   <tile gid="0"/>
   <tile gid="0"/>
   <tile gid="0"/>
   <tile gid="0"/>
   <tile gid="0"/>
   <tile gid="0"/>
   <tile gid="0"/>
   <tile gid="0"/>
   <tile gid="0"/>
   <tile gid="0"/>
   <tile gid="0"/>
   <tile gid="0"/>
   <tile gid="0"/>
   <tile gid="0"/>
   <tile gid="0"/>
   <tile gid="0"/>
   <tile gid="0"/>
   <tile gid="0"/>
   <tile gid="0"/>
   <tile gid="0"/>
   <tile gid="0"/>
   <tile gid="0"/>
   <tile gid="0"/>
   <tile gid="0"/>
   <tile gid="0"/>
   <tile gid="0"/>
   <tile gid="0"/>
   <tile gid="0"/>
   <tile gid="0"/>
   <tile gid="0"/>
   <tile gid="0"/>
   <tile gid="0"/>
   <tile gid="0"/>
   <tile gid="0"/>
   <tile gid="0"/>
   <tile gid="0"/>
   <tile gid="0"/>
   <tile gid="0"/>
   <tile gid="0"/>
   <tile gid="0"/>
   <tile gid="0"/>
   <tile gid="0"/>
   <tile gid="0"/>
   <tile gid="0"/>
   <tile gid="0"/>
   <tile gid="0"/>
   <tile gid="0"/>
   <tile gid="0"/>
   <tile gid="0"/>
   <tile gid="0"/>
   <tile gid="0"/>
   <tile gid="0"/>
   <tile gid="0"/>
   <tile gid="0"/>
   <tile gid="0"/>
   <tile gid="0"/>
   <tile gid="0"/>
   <tile gid="0"/>
   <tile gid="0"/>
   <tile gid="0"/>
   <tile gid="0"/>
   <tile gid="0"/>
   <tile gid="0"/>
   <tile gid="0"/>
   <tile gid="0"/>
   <tile gid="0"/>
   <tile gid="0"/>
   <tile gid="0"/>
   <tile gid="0"/>
   <tile gid="0"/>
   <tile gid="0"/>
   <tile gid="0"/>
   <tile gid="0"/>
   <tile gid="0"/>
   <tile gid="0"/>
   <tile gid="0"/>
   <tile gid="0"/>
   <tile gid="0"/>
   <tile gid="0"/>
   <tile gid="0"/>
   <tile gid="0"/>
   <tile gid="0"/>
   <tile gid="0"/>
   <tile gid="0"/>
   <tile gid="0"/>
   <tile gid="0"/>
   <tile gid="0"/>
   <tile gid="0"/>
   <tile gid="0"/>
   <tile gid="0"/>
   <tile gid="0"/>
   <tile gid="0"/>
   <tile gid="0"/>
   <tile gid="0"/>
   <tile gid="0"/>
   <tile gid="0"/>
   <tile gid="0"/>
   <tile gid="0"/>
   <tile gid="0"/>
   <tile gid="0"/>
   <tile gid="0"/>
   <tile gid="0"/>
   <tile gid="0"/>
   <tile gid="0"/>
   <tile gid="0"/>
   <tile gid="0"/>
   <tile gid="0"/>
   <tile gid="0"/>
   <tile gid="0"/>
   <tile gid="0"/>
   <tile gid="0"/>
   <tile gid="0"/>
   <tile gid="0"/>
   <tile gid="0"/>
   <tile gid="0"/>
   <tile gid="0"/>
   <tile gid="0"/>
   <tile gid="0"/>
   <tile gid="0"/>
   <tile gid="0"/>
   <tile gid="0"/>
   <tile gid="0"/>
   <tile gid="0"/>
   <tile gid="0"/>
   <tile gid="0"/>
   <tile gid="0"/>
   <tile gid="0"/>
   <tile gid="0"/>
   <tile gid="0"/>
   <tile gid="0"/>
   <tile gid="0"/>
   <tile gid="0"/>
   <tile gid="0"/>
   <tile gid="0"/>
   <tile gid="0"/>
   <tile gid="0"/>
   <tile gid="0"/>
   <tile gid="0"/>
   <tile gid="0"/>
   <tile gid="0"/>
   <tile gid="0"/>
   <tile gid="0"/>
   <tile gid="0"/>
   <tile gid="0"/>
   <tile gid="0"/>
   <tile gid="0"/>
   <tile gid="0"/>
   <tile gid="0"/>
   <tile gid="0"/>
   <tile gid="0"/>
   <tile gid="0"/>
   <tile gid="0"/>
   <tile gid="0"/>
   <tile gid="0"/>
   <tile gid="0"/>
   <tile gid="0"/>
   <tile gid="0"/>
   <tile gid="0"/>
   <tile gid="0"/>
   <tile gid="0"/>
   <tile gid="0"/>
   <tile gid="0"/>
   <tile gid="0"/>
   <tile gid="0"/>
   <tile gid="0"/>
   <tile gid="0"/>
   <tile gid="0"/>
   <tile gid="0"/>
   <tile gid="0"/>
   <tile gid="0"/>
   <tile gid="0"/>
   <tile gid="0"/>
   <tile gid="0"/>
   <tile gid="0"/>
   <tile gid="0"/>
   <tile gid="0"/>
   <tile gid="0"/>
   <tile gid="0"/>
   <tile gid="0"/>
   <tile gid="0"/>
   <tile gid="0"/>
   <tile gid="0"/>
   <tile gid="0"/>
   <tile gid="0"/>
   <tile gid="0"/>
   <tile gid="0"/>
   <tile gid="0"/>
   <tile gid="0"/>
   <tile gid="0"/>
   <tile gid="0"/>
   <tile gid="0"/>
   <tile gid="0"/>
   <tile gid="0"/>
   <tile gid="0"/>
   <tile gid="0"/>
   <tile gid="0"/>
   <tile gid="0"/>
   <tile gid="0"/>
   <tile gid="0"/>
   <tile gid="0"/>
   <tile gid="0"/>
   <tile gid="0"/>
   <tile gid="0"/>
   <tile gid="0"/>
   <tile gid="0"/>
   <tile gid="0"/>
   <tile gid="0"/>
   <tile gid="0"/>
   <tile gid="0"/>
   <tile gid="0"/>
   <tile gid="0"/>
   <tile gid="0"/>
   <tile gid="0"/>
   <tile gid="0"/>
   <tile gid="0"/>
   <tile gid="0"/>
   <tile gid="0"/>
   <tile gid="0"/>
   <tile gid="0"/>
   <tile gid="0"/>
   <tile gid="0"/>
   <tile gid="0"/>
   <tile gid="0"/>
   <tile gid="0"/>
   <tile gid="0"/>
   <tile gid="0"/>
   <tile gid="0"/>
   <tile gid="0"/>
   <tile gid="0"/>
   <tile gid="0"/>
   <tile gid="0"/>
   <tile gid="0"/>
   <tile gid="0"/>
   <tile gid="0"/>
   <tile gid="0"/>
   <tile gid="0"/>
   <tile gid="0"/>
   <tile gid="0"/>
   <tile gid="0"/>
   <tile gid="0"/>
   <tile gid="0"/>
   <tile gid="0"/>
   <tile gid="0"/>
   <tile gid="0"/>
   <tile gid="0"/>
   <tile gid="0"/>
   <tile gid="0"/>
   <tile gid="0"/>
   <tile gid="0"/>
   <tile gid="0"/>
   <tile gid="0"/>
   <tile gid="0"/>
   <tile gid="0"/>
   <tile gid="0"/>
   <tile gid="0"/>
   <tile gid="0"/>
   <tile gid="0"/>
   <tile gid="0"/>
   <tile gid="0"/>
   <tile gid="0"/>
   <tile gid="0"/>
   <tile gid="0"/>
   <tile gid="0"/>
   <tile gid="0"/>
   <tile gid="0"/>
   <tile gid="0"/>
   <tile gid="0"/>
   <tile gid="0"/>
   <tile gid="0"/>
   <tile gid="0"/>
   <tile gid="0"/>
   <tile gid="0"/>
   <tile gid="0"/>
   <tile gid="0"/>
   <tile gid="0"/>
   <tile gid="0"/>
   <tile gid="0"/>
   <tile gid="0"/>
   <tile gid="0"/>
   <tile gid="0"/>
   <tile gid="0"/>
   <tile gid="0"/>
   <tile gid="0"/>
   <tile gid="0"/>
   <tile gid="0"/>
   <tile gid="0"/>
   <tile gid="0"/>
   <tile gid="0"/>
   <tile gid="0"/>
   <tile gid="0"/>
   <tile gid="0"/>
   <tile gid="0"/>
   <tile gid="0"/>
   <tile gid="0"/>
   <tile gid="0"/>
   <tile gid="0"/>
   <tile gid="0"/>
   <tile gid="0"/>
   <tile gid="0"/>
   <tile gid="0"/>
   <tile gid="0"/>
   <tile gid="0"/>
   <tile gid="0"/>
   <tile gid="0"/>
   <tile gid="0"/>
   <tile gid="0"/>
   <tile gid="0"/>
   <tile gid="0"/>
   <tile gid="0"/>
   <tile gid="0"/>
   <tile gid="0"/>
   <tile gid="0"/>
   <tile gid="0"/>
   <tile gid="0"/>
   <tile gid="0"/>
   <tile gid="0"/>
   <tile gid="0"/>
   <tile gid="0"/>
   <tile gid="0"/>
   <tile gid="0"/>
   <tile gid="0"/>
   <tile gid="0"/>
   <tile gid="0"/>
   <tile gid="0"/>
   <tile gid="0"/>
   <tile gid="0"/>
   <tile gid="0"/>
   <tile gid="0"/>
   <tile gid="0"/>
   <tile gid="0"/>
   <tile gid="0"/>
   <tile gid="0"/>
   <tile gid="0"/>
   <tile gid="0"/>
   <tile gid="0"/>
   <tile gid="0"/>
   <tile gid="0"/>
   <tile gid="0"/>
   <tile gid="0"/>
   <tile gid="0"/>
   <tile gid="0"/>
   <tile gid="0"/>
   <tile gid="0"/>
   <tile gid="0"/>
   <tile gid="0"/>
   <tile gid="0"/>
   <tile gid="0"/>
   <tile gid="0"/>
   <tile gid="0"/>
   <tile gid="0"/>
   <tile gid="0"/>
   <tile gid="0"/>
   <tile gid="0"/>
   <tile gid="0"/>
   <tile gid="0"/>
   <tile gid="0"/>
   <tile gid="0"/>
   <tile gid="0"/>
   <tile gid="0"/>
   <tile gid="0"/>
   <tile gid="0"/>
   <tile gid="0"/>
   <tile gid="0"/>
   <tile gid="0"/>
   <tile gid="0"/>
   <tile gid="0"/>
   <tile gid="0"/>
   <tile gid="0"/>
   <tile gid="0"/>
   <tile gid="0"/>
   <tile gid="0"/>
   <tile gid="0"/>
   <tile gid="0"/>
   <tile gid="0"/>
   <tile gid="0"/>
   <tile gid="0"/>
   <tile gid="0"/>
   <tile gid="0"/>
   <tile gid="0"/>
   <tile gid="0"/>
   <tile gid="0"/>
   <tile gid="0"/>
   <tile gid="0"/>
   <tile gid="0"/>
   <tile gid="0"/>
   <tile gid="0"/>
   <tile gid="0"/>
   <tile gid="0"/>
   <tile gid="0"/>
   <tile gid="0"/>
   <tile gid="0"/>
   <tile gid="0"/>
   <tile gid="0"/>
   <tile gid="0"/>
   <tile gid="0"/>
   <tile gid="0"/>
   <tile gid="0"/>
   <tile gid="0"/>
   <tile gid="0"/>
   <tile gid="0"/>
   <tile gid="0"/>
   <tile gid="0"/>
   <tile gid="0"/>
   <tile gid="0"/>
   <tile gid="0"/>
   <tile gid="0"/>
   <tile gid="0"/>
   <tile gid="0"/>
   <tile gid="0"/>
   <tile gid="0"/>
   <tile gid="0"/>
   <tile gid="0"/>
   <tile gid="0"/>
   <tile gid="0"/>
   <tile gid="0"/>
   <tile gid="0"/>
   <tile gid="0"/>
   <tile gid="0"/>
   <tile gid="0"/>
   <tile gid="0"/>
   <tile gid="0"/>
   <tile gid="0"/>
   <tile gid="0"/>
   <tile gid="0"/>
   <tile gid="0"/>
   <tile gid="0"/>
   <tile gid="0"/>
   <tile gid="0"/>
   <tile gid="0"/>
   <tile gid="0"/>
   <tile gid="0"/>
   <tile gid="0"/>
   <tile gid="0"/>
   <tile gid="0"/>
   <tile gid="0"/>
   <tile gid="0"/>
   <tile gid="0"/>
   <tile gid="0"/>
   <tile gid="0"/>
   <tile gid="0"/>
   <tile gid="0"/>
   <tile gid="0"/>
   <tile gid="0"/>
   <tile gid="0"/>
   <tile gid="0"/>
   <tile gid="0"/>
   <tile gid="0"/>
   <tile gid="0"/>
   <tile gid="0"/>
   <tile gid="0"/>
   <tile gid="0"/>
   <tile gid="0"/>
   <tile gid="0"/>
   <tile gid="0"/>
   <tile gid="0"/>
   <tile gid="0"/>
   <tile gid="0"/>
   <tile gid="0"/>
   <tile gid="0"/>
   <tile gid="0"/>
   <tile gid="0"/>
   <tile gid="0"/>
   <tile gid="0"/>
   <tile gid="0"/>
   <tile gid="0"/>
   <tile gid="0"/>
   <tile gid="0"/>
   <tile gid="0"/>
   <tile gid="0"/>
   <tile gid="0"/>
   <tile gid="0"/>
   <tile gid="0"/>
   <tile gid="0"/>
   <tile gid="0"/>
   <tile gid="0"/>
   <tile gid="0"/>
   <tile gid="0"/>
   <tile gid="0"/>
   <tile gid="0"/>
   <tile gid="0"/>
   <tile gid="0"/>
   <tile gid="0"/>
   <tile gid="0"/>
   <tile gid="0"/>
   <tile gid="0"/>
   <tile gid="0"/>
   <tile gid="0"/>
   <tile gid="0"/>
   <tile gid="0"/>
   <tile gid="0"/>
   <tile gid="0"/>
   <tile gid="0"/>
   <tile gid="0"/>
   <tile gid="0"/>
   <tile gid="0"/>
   <tile gid="0"/>
   <tile gid="0"/>
   <tile gid="0"/>
   <tile gid="0"/>
   <tile gid="0"/>
   <tile gid="0"/>
   <tile gid="0"/>
   <tile gid="0"/>
   <tile gid="0"/>
   <tile gid="0"/>
   <tile gid="0"/>
   <tile gid="0"/>
   <tile gid="0"/>
   <tile gid="0"/>
   <tile gid="0"/>
   <tile gid="0"/>
   <tile gid="0"/>
   <tile gid="0"/>
   <tile gid="0"/>
   <tile gid="0"/>
   <tile gid="0"/>
   <tile gid="0"/>
   <tile gid="0"/>
   <tile gid="0"/>
   <tile gid="0"/>
   <tile gid="0"/>
   <tile gid="0"/>
   <tile gid="0"/>
   <tile gid="0"/>
   <tile gid="0"/>
   <tile gid="0"/>
   <tile gid="0"/>
   <tile gid="0"/>
   <tile gid="0"/>
   <tile gid="0"/>
   <tile gid="0"/>
   <tile gid="0"/>
   <tile gid="0"/>
   <tile gid="0"/>
   <tile gid="0"/>
   <tile gid="0"/>
   <tile gid="0"/>
   <tile gid="0"/>
   <tile gid="0"/>
   <tile gid="0"/>
   <tile gid="0"/>
   <tile gid="0"/>
   <tile gid="0"/>
   <tile gid="0"/>
   <tile gid="0"/>
   <tile gid="0"/>
   <tile gid="0"/>
   <tile gid="0"/>
   <tile gid="0"/>
   <tile gid="0"/>
   <tile gid="0"/>
   <tile gid="0"/>
   <tile gid="0"/>
   <tile gid="0"/>
   <tile gid="0"/>
   <tile gid="0"/>
   <tile gid="0"/>
   <tile gid="0"/>
   <tile gid="0"/>
   <tile gid="0"/>
   <tile gid="0"/>
   <tile gid="0"/>
   <tile gid="0"/>
   <tile gid="0"/>
   <tile gid="0"/>
   <tile gid="0"/>
   <tile gid="0"/>
   <tile gid="0"/>
   <tile gid="0"/>
   <tile gid="0"/>
   <tile gid="0"/>
   <tile gid="0"/>
   <tile gid="0"/>
   <tile gid="0"/>
   <tile gid="0"/>
   <tile gid="0"/>
   <tile gid="0"/>
   <tile gid="0"/>
   <tile gid="0"/>
   <tile gid="0"/>
   <tile gid="0"/>
   <tile gid="0"/>
   <tile gid="0"/>
   <tile gid="0"/>
   <tile gid="0"/>
   <tile gid="0"/>
   <tile gid="0"/>
   <tile gid="0"/>
   <tile gid="0"/>
   <tile gid="0"/>
   <tile gid="0"/>
   <tile gid="0"/>
   <tile gid="0"/>
   <tile gid="0"/>
   <tile gid="0"/>
   <tile gid="0"/>
   <tile gid="0"/>
   <tile gid="0"/>
   <tile gid="0"/>
   <tile gid="0"/>
   <tile gid="0"/>
   <tile gid="0"/>
   <tile gid="0"/>
   <tile gid="0"/>
   <tile gid="0"/>
   <tile gid="0"/>
   <tile gid="0"/>
   <tile gid="0"/>
   <tile gid="0"/>
   <tile gid="0"/>
   <tile gid="0"/>
   <tile gid="0"/>
   <tile gid="0"/>
   <tile gid="0"/>
   <tile gid="0"/>
   <tile gid="0"/>
   <tile gid="0"/>
   <tile gid="0"/>
   <tile gid="0"/>
   <tile gid="0"/>
   <tile gid="0"/>
   <tile gid="0"/>
   <tile gid="0"/>
   <tile gid="0"/>
   <tile gid="0"/>
   <tile gid="0"/>
   <tile gid="0"/>
   <tile gid="0"/>
   <tile gid="0"/>
   <tile gid="0"/>
   <tile gid="0"/>
   <tile gid="0"/>
   <tile gid="0"/>
   <tile gid="0"/>
   <tile gid="0"/>
   <tile gid="0"/>
   <tile gid="0"/>
   <tile gid="0"/>
   <tile gid="0"/>
   <tile gid="0"/>
   <tile gid="0"/>
   <tile gid="0"/>
   <tile gid="0"/>
   <tile gid="0"/>
   <tile gid="0"/>
   <tile gid="0"/>
   <tile gid="0"/>
   <tile gid="0"/>
   <tile gid="0"/>
   <tile gid="0"/>
   <tile gid="0"/>
   <tile gid="0"/>
   <tile gid="0"/>
   <tile gid="0"/>
   <tile gid="0"/>
   <tile gid="0"/>
   <tile gid="0"/>
  </data>
 </layer>
 <objectgroup name="PowerUpSpawns">
  <object id="1" name="spawn1" type="PowerUpSpawn" x="160" y="96" width="96" height="96"/>
  <object id="2" name="spawn4" type="PowerUpSpawn" x="160" y="480" width="96" height="96"/>
  <object id="3" name="spawn3" type="PowerUpSpawn" x="1024" y="480" width="96" height="96"/>
  <object id="4" name="spawn2" type="PowerUpSpawn" x="1024" y="96" width="96" height="96"/>
  <object id="5" name="spawn4" type="PowerUpSpawn" x="512" y="192" width="288" height="288"/>
 </objectgroup>
 <objectgroup name="PlayerSpawns">
  <object id="6" name="P1" type="PlayerSpawn" x="448" y="128" width="32" height="32">
   <properties>
    <property name="rotation" value="45"/>
   </properties>
  </object>
  <object id="7" name="P2" type="PlayerSpawn" x="832" y="512" width="32" height="32">
   <properties>
    <property name="rotation" value="225"/>
   </properties>
  </object>
  <object id="8" name="P4" type="PlayerSpawn" x="448" y="512" width="32" height="32">
   <properties>
    <property name="rotation" value="315"/>
   </properties>
  </object>
  <object id="9" name="P3" type="PlayerSpawn" x="832" y="128" width="32" height="32">
   <properties>
    <property name="rotation" value="135"/>
   </properties>
  </object>
  <object id="11" name="P5" type="PlayerSpawn" x="288" y="256" width="32" height="32">
   <properties>
    <property name="rotation" value="45"/>
   </properties>
  </object>
  <object id="12" name="P8" type="PlayerSpawn" x="288" y="384" width="32" height="32">
   <properties>
    <property name="rotation" value="315"/>
   </properties>
  </object>
  <object id="13" name="P6" type="PlayerSpawn" x="960" y="384" width="32" height="32">
   <properties>
    <property name="rotation" value="225"/>
   </properties>
  </object>
  <object id="14" name="P7" type="PlayerSpawn" x="960" y="256" width="32" height="32">
   <properties>
    <property name="rotation" value="135"/>
   </properties>
  </object>
 </objectgroup>
 <objectgroup name="PowerUps">
  <object id="10" gid="21" x="640" y="352" width="32" height="32">
   <properties>
    <property name="lifespan" value="99999999"/>
   </properties>
  </object>
 </objectgroup>
 <objectgroup name="Features"/>
</map>
