<?xml version="1.0" encoding="UTF-8"?>
<map version="1.0" orientation="orthogonal" renderorder="right-down" width="40" height="21" tilewidth="32" tileheight="32" nextobjectid="18">
 <properties>
  <property name="name" value="Sprint"/>
 </properties>
 <tileset firstgid="1" name="wallTileSheet" tilewidth="32" tileheight="32" tilecount="16">
  <image source="../tiles/wallTileSheet.png" width="512" height="32"/>
 </tileset>
 <layer name="Walls" width="40" height="21">
  <data>
   <tile gid="5"/>
   <tile gid="5"/>
   <tile gid="3"/>
   <tile gid="3"/>
   <tile gid="3"/>
   <tile gid="3"/>
   <tile gid="3"/>
   <tile gid="3"/>
   <tile gid="3"/>
   <tile gid="5"/>
   <tile gid="5"/>
   <tile gid="5"/>
   <tile gid="5"/>
   <tile gid="5"/>
   <tile gid="6"/>
   <tile gid="6"/>
   <tile gid="6"/>
   <tile gid="6"/>
   <tile gid="3"/>
   <tile gid="0"/>
   <tile gid="0"/>
   <tile gid="0"/>
   <tile gid="0"/>
   <tile gid="0"/>
   <tile gid="0"/>
   <tile gid="0"/>
   <tile gid="0"/>
   <tile gid="0"/>
   <tile gid="0"/>
   <tile gid="0"/>
   <tile gid="6"/>
   <tile gid="6"/>
   <tile gid="6"/>
   <tile gid="6"/>
   <tile gid="6"/>
   <tile gid="6"/>
   <tile gid="6"/>
   <tile gid="6"/>
   <tile gid="6"/>
   <tile gid="6"/>
   <tile gid="3"/>
   <tile gid="3"/>
   <tile gid="0"/>
   <tile gid="0"/>
   <tile gid="0"/>
   <tile gid="0"/>
   <tile gid="0"/>
   <tile gid="0"/>
   <tile gid="0"/>
   <tile gid="3"/>
   <tile gid="3"/>
   <tile gid="3"/>
   <tile gid="3"/>
   <tile gid="3"/>
   <tile gid="5"/>
   <tile gid="5"/>
   <tile gid="5"/>
   <tile gid="5"/>
   <tile gid="3"/>
   <tile gid="0"/>
   <tile gid="0"/>
   <tile gid="0"/>
   <tile gid="0"/>
   <tile gid="0"/>
   <tile gid="0"/>
   <tile gid="0"/>
   <tile gid="0"/>
   <tile gid="0"/>
   <tile gid="0"/>
   <tile gid="6"/>
   <tile gid="6"/>
   <tile gid="6"/>
   <tile gid="3"/>
   <tile gid="3"/>
   <tile gid="3"/>
   <tile gid="3"/>
   <tile gid="3"/>
   <tile gid="3"/>
   <tile gid="3"/>
   <tile gid="3"/>
   <tile gid="0"/>
   <tile gid="0"/>
   <tile gid="0"/>
   <tile gid="0"/>
   <tile gid="0"/>
   <tile gid="0"/>
   <tile gid="0"/>
   <tile gid="0"/>
   <tile gid="0"/>
   <tile gid="0"/>
   <tile gid="0"/>
   <tile gid="0"/>
   <tile gid="0"/>
   <tile gid="0"/>
   <tile gid="3"/>
   <tile gid="3"/>
   <tile gid="3"/>
   <tile gid="3"/>
   <tile gid="0"/>
   <tile gid="0"/>
   <tile gid="0"/>
   <tile gid="0"/>
   <tile gid="0"/>
   <tile gid="0"/>
   <tile gid="0"/>
   <tile gid="0"/>
   <tile gid="0"/>
   <tile gid="0"/>
   <tile gid="0"/>
   <tile gid="6"/>
   <tile gid="6"/>
   <tile gid="3"/>
   <tile gid="0"/>
   <tile gid="0"/>
   <tile gid="0"/>
   <tile gid="0"/>
   <tile gid="0"/>
   <tile gid="0"/>
   <tile gid="0"/>
   <tile gid="0"/>
   <tile gid="0"/>
   <tile gid="0"/>
   <tile gid="0"/>
   <tile gid="0"/>
   <tile gid="0"/>
   <tile gid="0"/>
   <tile gid="0"/>
   <tile gid="0"/>
   <tile gid="0"/>
   <tile gid="0"/>
   <tile gid="0"/>
   <tile gid="0"/>
   <tile gid="0"/>
   <tile gid="0"/>
   <tile gid="0"/>
   <tile gid="0"/>
   <tile gid="0"/>
   <tile gid="0"/>
   <tile gid="0"/>
   <tile gid="0"/>
   <tile gid="0"/>
   <tile gid="0"/>
   <tile gid="0"/>
   <tile gid="0"/>
   <tile gid="0"/>
   <tile gid="0"/>
   <tile gid="0"/>
   <tile gid="0"/>
   <tile gid="6"/>
   <tile gid="6"/>
   <tile gid="3"/>
   <tile gid="0"/>
   <tile gid="0"/>
   <tile gid="0"/>
   <tile gid="0"/>
   <tile gid="0"/>
   <tile gid="0"/>
   <tile gid="0"/>
   <tile gid="0"/>
   <tile gid="0"/>
   <tile gid="0"/>
   <tile gid="0"/>
   <tile gid="0"/>
   <tile gid="0"/>
   <tile gid="0"/>
   <tile gid="0"/>
   <tile gid="0"/>
   <tile gid="0"/>
   <tile gid="0"/>
   <tile gid="0"/>
   <tile gid="0"/>
   <tile gid="0"/>
   <tile gid="0"/>
   <tile gid="0"/>
   <tile gid="0"/>
   <tile gid="0"/>
   <tile gid="0"/>
   <tile gid="0"/>
   <tile gid="0"/>
   <tile gid="0"/>
   <tile gid="0"/>
   <tile gid="0"/>
   <tile gid="0"/>
   <tile gid="0"/>
   <tile gid="0"/>
   <tile gid="0"/>
   <tile gid="0"/>
   <tile gid="0"/>
   <tile gid="6"/>
   <tile gid="3"/>
   <tile gid="0"/>
   <tile gid="0"/>
   <tile gid="0"/>
   <tile gid="0"/>
   <tile gid="0"/>
   <tile gid="0"/>
   <tile gid="0"/>
   <tile gid="0"/>
   <tile gid="0"/>
   <tile gid="0"/>
   <tile gid="0"/>
   <tile gid="0"/>
   <tile gid="0"/>
   <tile gid="0"/>
   <tile gid="0"/>
   <tile gid="0"/>
   <tile gid="0"/>
   <tile gid="0"/>
   <tile gid="0"/>
   <tile gid="0"/>
   <tile gid="0"/>
   <tile gid="0"/>
   <tile gid="0"/>
   <tile gid="0"/>
   <tile gid="0"/>
   <tile gid="0"/>
   <tile gid="0"/>
   <tile gid="0"/>
   <tile gid="0"/>
   <tile gid="0"/>
   <tile gid="0"/>
   <tile gid="0"/>
   <tile gid="0"/>
   <tile gid="0"/>
   <tile gid="0"/>
   <tile gid="0"/>
   <tile gid="0"/>
   <tile gid="6"/>
   <tile gid="3"/>
   <tile gid="0"/>
   <tile gid="0"/>
   <tile gid="0"/>
   <tile gid="0"/>
   <tile gid="0"/>
   <tile gid="0"/>
   <tile gid="0"/>
   <tile gid="0"/>
   <tile gid="0"/>
   <tile gid="0"/>
   <tile gid="0"/>
   <tile gid="0"/>
   <tile gid="0"/>
   <tile gid="0"/>
   <tile gid="0"/>
   <tile gid="0"/>
   <tile gid="0"/>
   <tile gid="0"/>
   <tile gid="0"/>
   <tile gid="0"/>
   <tile gid="0"/>
   <tile gid="0"/>
   <tile gid="0"/>
   <tile gid="0"/>
   <tile gid="0"/>
   <tile gid="0"/>
   <tile gid="0"/>
   <tile gid="0"/>
   <tile gid="0"/>
   <tile gid="0"/>
   <tile gid="0"/>
   <tile gid="0"/>
   <tile gid="0"/>
   <tile gid="0"/>
   <tile gid="0"/>
   <tile gid="0"/>
   <tile gid="0"/>
   <tile gid="0"/>
   <tile gid="6"/>
   <tile gid="3"/>
   <tile gid="0"/>
   <tile gid="0"/>
   <tile gid="0"/>
   <tile gid="0"/>
   <tile gid="0"/>
   <tile gid="0"/>
   <tile gid="0"/>
   <tile gid="0"/>
   <tile gid="0"/>
   <tile gid="0"/>
   <tile gid="0"/>
   <tile gid="0"/>
   <tile gid="0"/>
   <tile gid="0"/>
   <tile gid="0"/>
   <tile gid="0"/>
   <tile gid="0"/>
   <tile gid="0"/>
   <tile gid="0"/>
   <tile gid="0"/>
   <tile gid="0"/>
   <tile gid="0"/>
   <tile gid="0"/>
   <tile gid="0"/>
   <tile gid="0"/>
   <tile gid="0"/>
   <tile gid="0"/>
   <tile gid="0"/>
   <tile gid="0"/>
   <tile gid="0"/>
   <tile gid="0"/>
   <tile gid="0"/>
   <tile gid="0"/>
   <tile gid="0"/>
   <tile gid="0"/>
   <tile gid="0"/>
   <tile gid="0"/>
   <tile gid="6"/>
   <tile gid="3"/>
   <tile gid="0"/>
   <tile gid="0"/>
   <tile gid="0"/>
   <tile gid="0"/>
   <tile gid="0"/>
   <tile gid="0"/>
   <tile gid="0"/>
   <tile gid="0"/>
   <tile gid="0"/>
   <tile gid="0"/>
   <tile gid="0"/>
   <tile gid="0"/>
   <tile gid="0"/>
   <tile gid="0"/>
   <tile gid="0"/>
   <tile gid="0"/>
   <tile gid="0"/>
   <tile gid="0"/>
   <tile gid="0"/>
   <tile gid="0"/>
   <tile gid="0"/>
   <tile gid="0"/>
   <tile gid="0"/>
   <tile gid="0"/>
   <tile gid="0"/>
   <tile gid="0"/>
   <tile gid="0"/>
   <tile gid="0"/>
   <tile gid="0"/>
   <tile gid="0"/>
   <tile gid="0"/>
   <tile gid="0"/>
   <tile gid="0"/>
   <tile gid="0"/>
   <tile gid="0"/>
   <tile gid="0"/>
   <tile gid="6"/>
   <tile gid="6"/>
   <tile gid="6"/>
   <tile gid="3"/>
   <tile gid="0"/>
   <tile gid="0"/>
   <tile gid="0"/>
   <tile gid="0"/>
   <tile gid="0"/>
   <tile gid="0"/>
   <tile gid="0"/>
   <tile gid="0"/>
   <tile gid="0"/>
   <tile gid="0"/>
   <tile gid="0"/>
   <tile gid="0"/>
   <tile gid="6"/>
   <tile gid="6"/>
   <tile gid="6"/>
   <tile gid="6"/>
   <tile gid="6"/>
   <tile gid="6"/>
   <tile gid="6"/>
   <tile gid="6"/>
   <tile gid="0"/>
   <tile gid="0"/>
   <tile gid="0"/>
   <tile gid="0"/>
   <tile gid="0"/>
   <tile gid="0"/>
   <tile gid="0"/>
   <tile gid="0"/>
   <tile gid="0"/>
   <tile gid="0"/>
   <tile gid="0"/>
   <tile gid="0"/>
   <tile gid="0"/>
   <tile gid="0"/>
   <tile gid="6"/>
   <tile gid="6"/>
   <tile gid="5"/>
   <tile gid="5"/>
   <tile gid="3"/>
   <tile gid="0"/>
   <tile gid="0"/>
   <tile gid="0"/>
   <tile gid="0"/>
   <tile gid="0"/>
   <tile gid="0"/>
   <tile gid="0"/>
   <tile gid="0"/>
   <tile gid="0"/>
   <tile gid="6"/>
   <tile gid="6"/>
   <tile gid="6"/>
   <tile gid="6"/>
   <tile gid="5"/>
   <tile gid="5"/>
   <tile gid="5"/>
   <tile gid="5"/>
   <tile gid="5"/>
   <tile gid="5"/>
   <tile gid="5"/>
   <tile gid="5"/>
   <tile gid="6"/>
   <tile gid="6"/>
   <tile gid="6"/>
   <tile gid="6"/>
   <tile gid="6"/>
   <tile gid="6"/>
   <tile gid="6"/>
   <tile gid="6"/>
   <tile gid="6"/>
   <tile gid="6"/>
   <tile gid="6"/>
   <tile gid="6"/>
   <tile gid="6"/>
   <tile gid="6"/>
   <tile gid="5"/>
   <tile gid="5"/>
   <tile gid="5"/>
   <tile gid="5"/>
   <tile gid="3"/>
   <tile gid="0"/>
   <tile gid="0"/>
   <tile gid="0"/>
   <tile gid="0"/>
   <tile gid="0"/>
   <tile gid="0"/>
   <tile gid="0"/>
   <tile gid="0"/>
   <tile gid="6"/>
   <tile gid="5"/>
   <tile gid="5"/>
   <tile gid="5"/>
   <tile gid="5"/>
   <tile gid="6"/>
   <tile gid="6"/>
   <tile gid="6"/>
   <tile gid="6"/>
   <tile gid="6"/>
   <tile gid="6"/>
   <tile gid="6"/>
   <tile gid="6"/>
   <tile gid="0"/>
   <tile gid="0"/>
   <tile gid="0"/>
   <tile gid="0"/>
   <tile gid="0"/>
   <tile gid="0"/>
   <tile gid="0"/>
   <tile gid="0"/>
   <tile gid="0"/>
   <tile gid="0"/>
   <tile gid="0"/>
   <tile gid="0"/>
   <tile gid="0"/>
   <tile gid="0"/>
   <tile gid="6"/>
   <tile gid="6"/>
   <tile gid="5"/>
   <tile gid="5"/>
   <tile gid="3"/>
   <tile gid="0"/>
   <tile gid="0"/>
   <tile gid="0"/>
   <tile gid="0"/>
   <tile gid="0"/>
   <tile gid="0"/>
   <tile gid="0"/>
   <tile gid="0"/>
   <tile gid="0"/>
   <tile gid="6"/>
   <tile gid="6"/>
   <tile gid="6"/>
   <tile gid="6"/>
   <tile gid="0"/>
   <tile gid="0"/>
   <tile gid="0"/>
   <tile gid="0"/>
   <tile gid="0"/>
   <tile gid="0"/>
   <tile gid="0"/>
   <tile gid="0"/>
   <tile gid="0"/>
   <tile gid="0"/>
   <tile gid="0"/>
   <tile gid="0"/>
   <tile gid="0"/>
   <tile gid="0"/>
   <tile gid="0"/>
   <tile gid="0"/>
   <tile gid="0"/>
   <tile gid="0"/>
   <tile gid="0"/>
   <tile gid="0"/>
   <tile gid="0"/>
   <tile gid="0"/>
   <tile gid="0"/>
   <tile gid="0"/>
   <tile gid="6"/>
   <tile gid="6"/>
   <tile gid="6"/>
   <tile gid="3"/>
   <tile gid="0"/>
   <tile gid="0"/>
   <tile gid="0"/>
   <tile gid="0"/>
   <tile gid="0"/>
   <tile gid="0"/>
   <tile gid="0"/>
   <tile gid="0"/>
   <tile gid="0"/>
   <tile gid="0"/>
   <tile gid="0"/>
   <tile gid="0"/>
   <tile gid="0"/>
   <tile gid="0"/>
   <tile gid="0"/>
   <tile gid="0"/>
   <tile gid="0"/>
   <tile gid="0"/>
   <tile gid="0"/>
   <tile gid="0"/>
   <tile gid="0"/>
   <tile gid="0"/>
   <tile gid="0"/>
   <tile gid="0"/>
   <tile gid="0"/>
   <tile gid="0"/>
   <tile gid="0"/>
   <tile gid="0"/>
   <tile gid="0"/>
   <tile gid="0"/>
   <tile gid="0"/>
   <tile gid="0"/>
   <tile gid="0"/>
   <tile gid="0"/>
   <tile gid="0"/>
   <tile gid="0"/>
   <tile gid="0"/>
   <tile gid="0"/>
   <tile gid="6"/>
   <tile gid="3"/>
   <tile gid="0"/>
   <tile gid="0"/>
   <tile gid="0"/>
   <tile gid="0"/>
   <tile gid="0"/>
   <tile gid="0"/>
   <tile gid="0"/>
   <tile gid="0"/>
   <tile gid="0"/>
   <tile gid="0"/>
   <tile gid="0"/>
   <tile gid="0"/>
   <tile gid="0"/>
   <tile gid="0"/>
   <tile gid="0"/>
   <tile gid="0"/>
   <tile gid="0"/>
   <tile gid="0"/>
   <tile gid="0"/>
   <tile gid="0"/>
   <tile gid="0"/>
   <tile gid="0"/>
   <tile gid="0"/>
   <tile gid="0"/>
   <tile gid="0"/>
   <tile gid="0"/>
   <tile gid="0"/>
   <tile gid="0"/>
   <tile gid="0"/>
   <tile gid="0"/>
   <tile gid="0"/>
   <tile gid="0"/>
   <tile gid="0"/>
   <tile gid="0"/>
   <tile gid="0"/>
   <tile gid="0"/>
   <tile gid="0"/>
   <tile gid="0"/>
   <tile gid="0"/>
   <tile gid="6"/>
   <tile gid="3"/>
   <tile gid="0"/>
   <tile gid="0"/>
   <tile gid="0"/>
   <tile gid="0"/>
   <tile gid="0"/>
   <tile gid="0"/>
   <tile gid="0"/>
   <tile gid="0"/>
   <tile gid="0"/>
   <tile gid="0"/>
   <tile gid="0"/>
   <tile gid="0"/>
   <tile gid="0"/>
   <tile gid="0"/>
   <tile gid="0"/>
   <tile gid="0"/>
   <tile gid="0"/>
   <tile gid="0"/>
   <tile gid="0"/>
   <tile gid="0"/>
   <tile gid="0"/>
   <tile gid="0"/>
   <tile gid="0"/>
   <tile gid="0"/>
   <tile gid="0"/>
   <tile gid="0"/>
   <tile gid="0"/>
   <tile gid="0"/>
   <tile gid="0"/>
   <tile gid="0"/>
   <tile gid="0"/>
   <tile gid="0"/>
   <tile gid="0"/>
   <tile gid="0"/>
   <tile gid="0"/>
   <tile gid="0"/>
   <tile gid="0"/>
   <tile gid="0"/>
   <tile gid="6"/>
   <tile gid="3"/>
   <tile gid="0"/>
   <tile gid="0"/>
   <tile gid="0"/>
   <tile gid="0"/>
   <tile gid="0"/>
   <tile gid="0"/>
   <tile gid="0"/>
   <tile gid="0"/>
   <tile gid="0"/>
   <tile gid="0"/>
   <tile gid="0"/>
   <tile gid="0"/>
   <tile gid="0"/>
   <tile gid="0"/>
   <tile gid="0"/>
   <tile gid="0"/>
   <tile gid="0"/>
   <tile gid="0"/>
   <tile gid="0"/>
   <tile gid="0"/>
   <tile gid="0"/>
   <tile gid="0"/>
   <tile gid="0"/>
   <tile gid="0"/>
   <tile gid="0"/>
   <tile gid="0"/>
   <tile gid="0"/>
   <tile gid="0"/>
   <tile gid="0"/>
   <tile gid="0"/>
   <tile gid="0"/>
   <tile gid="0"/>
   <tile gid="0"/>
   <tile gid="0"/>
   <tile gid="0"/>
   <tile gid="0"/>
   <tile gid="0"/>
   <tile gid="0"/>
   <tile gid="0"/>
   <tile gid="6"/>
   <tile gid="3"/>
   <tile gid="0"/>
   <tile gid="0"/>
   <tile gid="0"/>
   <tile gid="0"/>
   <tile gid="0"/>
   <tile gid="0"/>
   <tile gid="0"/>
   <tile gid="0"/>
   <tile gid="0"/>
   <tile gid="0"/>
   <tile gid="0"/>
   <tile gid="0"/>
   <tile gid="0"/>
   <tile gid="0"/>
   <tile gid="0"/>
   <tile gid="0"/>
   <tile gid="0"/>
   <tile gid="0"/>
   <tile gid="0"/>
   <tile gid="0"/>
   <tile gid="0"/>
   <tile gid="0"/>
   <tile gid="0"/>
   <tile gid="0"/>
   <tile gid="0"/>
   <tile gid="0"/>
   <tile gid="0"/>
   <tile gid="0"/>
   <tile gid="0"/>
   <tile gid="0"/>
   <tile gid="0"/>
   <tile gid="0"/>
   <tile gid="0"/>
   <tile gid="0"/>
   <tile gid="0"/>
   <tile gid="0"/>
   <tile gid="0"/>
   <tile gid="0"/>
   <tile gid="6"/>
   <tile gid="6"/>
   <tile gid="3"/>
   <tile gid="0"/>
   <tile gid="0"/>
   <tile gid="0"/>
   <tile gid="0"/>
   <tile gid="0"/>
   <tile gid="0"/>
   <tile gid="0"/>
   <tile gid="0"/>
   <tile gid="0"/>
   <tile gid="0"/>
   <tile gid="0"/>
   <tile gid="0"/>
   <tile gid="0"/>
   <tile gid="0"/>
   <tile gid="0"/>
   <tile gid="0"/>
   <tile gid="0"/>
   <tile gid="0"/>
   <tile gid="0"/>
   <tile gid="0"/>
   <tile gid="0"/>
   <tile gid="0"/>
   <tile gid="0"/>
   <tile gid="3"/>
   <tile gid="3"/>
   <tile gid="3"/>
   <tile gid="3"/>
   <tile gid="0"/>
   <tile gid="0"/>
   <tile gid="0"/>
   <tile gid="0"/>
   <tile gid="0"/>
   <tile gid="0"/>
   <tile gid="0"/>
   <tile gid="0"/>
   <tile gid="0"/>
   <tile gid="0"/>
   <tile gid="0"/>
   <tile gid="6"/>
   <tile gid="6"/>
   <tile gid="3"/>
   <tile gid="0"/>
   <tile gid="0"/>
   <tile gid="0"/>
   <tile gid="0"/>
   <tile gid="0"/>
   <tile gid="0"/>
   <tile gid="0"/>
   <tile gid="0"/>
   <tile gid="3"/>
   <tile gid="3"/>
   <tile gid="0"/>
   <tile gid="0"/>
   <tile gid="0"/>
   <tile gid="0"/>
   <tile gid="0"/>
   <tile gid="0"/>
   <tile gid="0"/>
   <tile gid="3"/>
   <tile gid="3"/>
   <tile gid="3"/>
   <tile gid="3"/>
   <tile gid="3"/>
   <tile gid="5"/>
   <tile gid="5"/>
   <tile gid="5"/>
   <tile gid="5"/>
   <tile gid="3"/>
   <tile gid="0"/>
   <tile gid="0"/>
   <tile gid="0"/>
   <tile gid="0"/>
   <tile gid="0"/>
   <tile gid="0"/>
   <tile gid="0"/>
   <tile gid="0"/>
   <tile gid="0"/>
   <tile gid="0"/>
   <tile gid="6"/>
   <tile gid="6"/>
   <tile gid="6"/>
   <tile gid="3"/>
   <tile gid="3"/>
   <tile gid="3"/>
   <tile gid="3"/>
   <tile gid="3"/>
   <tile gid="3"/>
   <tile gid="3"/>
   <tile gid="3"/>
   <tile gid="5"/>
   <tile gid="5"/>
   <tile gid="3"/>
   <tile gid="3"/>
   <tile gid="3"/>
   <tile gid="3"/>
   <tile gid="3"/>
   <tile gid="3"/>
   <tile gid="3"/>
   <tile gid="5"/>
   <tile gid="5"/>
   <tile gid="5"/>
   <tile gid="5"/>
   <tile gid="5"/>
   <tile gid="6"/>
   <tile gid="6"/>
   <tile gid="6"/>
   <tile gid="6"/>
   <tile gid="3"/>
   <tile gid="0"/>
   <tile gid="0"/>
   <tile gid="0"/>
   <tile gid="0"/>
   <tile gid="0"/>
   <tile gid="0"/>
   <tile gid="0"/>
   <tile gid="0"/>
   <tile gid="0"/>
   <tile gid="0"/>
   <tile gid="0"/>
   <tile gid="6"/>
   <tile gid="6"/>
   <tile gid="6"/>
   <tile gid="6"/>
   <tile gid="6"/>
   <tile gid="6"/>
   <tile gid="6"/>
   <tile gid="6"/>
   <tile gid="6"/>
   <tile gid="6"/>
  </data>
 </layer>
 <objectgroup name="PowerUpSpawns">
  <object id="1" name="spawn1" type="PowerUpSpawn" x="1024" y="96" width="192" height="160"/>
  <object id="2" name="spawn2" type="PowerUpSpawn" x="1024" y="416" width="192" height="160"/>
  <object id="3" name="spawn3" type="PowerUpSpawn" x="640" y="544" width="256" height="128"/>
  <object id="4" name="spawn4" type="PowerUpSpawn" x="640" y="0" width="256" height="128"/>
  <object id="5" name="spawn5" type="PowerUpSpawn" x="256" y="128" width="448" height="192"/>
  <object id="6" name="spawn6" type="PowerUpSpawn" x="256" y="352" width="448" height="192"/>
  <object id="7" name="spawn7" type="PowerUpSpawn" x="896" y="256" width="224" height="160"/>
  <object id="8" name="spawn8" type="PowerUpSpawn" x="64" y="32" width="192" height="128"/>
  <object id="9" name="spawn9" type="PowerUpSpawn" x="64" y="512" width="192" height="128"/>
 </objectgroup>
 <objectgroup name="PlayerSpawns">
  <object id="10" name="P1" type="PlayerSpawn" x="32" y="192" width="32" height="32">
   <properties>
    <property name="rotation" value="0"/>
   </properties>
  </object>
  <object id="11" name="P2" type="PlayerSpawn" x="768" y="448" width="32" height="32">
   <properties>
    <property name="rotation" value="180"/>
   </properties>
  </object>
  <object id="12" name="P3" type="PlayerSpawn" x="896" y="32" width="32" height="32">
   <properties>
    <property name="rotation" value="180"/>
   </properties>
  </object>
  <object id="13" name="P4" type="PlayerSpawn" x="128" y="416" width="32" height="32">
   <properties>
    <property name="rotation" value="0"/>
   </properties>
  </object>
  <object id="14" name="P8" type="PlayerSpawn" x="288" y="96" width="32" height="32">
   <properties>
    <property name="rotation" value="0"/>
   </properties>
  </object>
  <object id="15" name="P7" type="PlayerSpawn" x="800" y="224" width="32" height="32">
   <properties>
    <property name="rotation" value="180"/>
   </properties>
  </object>
  <object id="16" name="P6" type="PlayerSpawn" x="704" y="512" width="32" height="32">
   <properties>
    <property name="rotation" value="180"/>
   </properties>
  </object>
  <object id="17" name="P8" type="PlayerSpawn" x="32" y="512" width="32" height="32">
   <properties>
    <property name="rotation" value="0"/>
   </properties>
  </object>
 </objectgroup>
 <objectgroup name="WarpSpawns" visible="0"/>
</map>
